!!!!SEGMENT: pl-stab--8a--001-004_dankowski-adalbert--requiem-domine-jesu-christe.krn
!!!cenid: 18xx:3478
!!!COM: Dankowski, Adalbert
!!!COM-rismID: pe30000793
!!!CDT: ~1760-~1836
!!!CNT: Polish
!!!OPR: Requiem
!!!OTL: Domine Jesu Christe
!!!OMV: 004
!!!PDT:
!!!AGN:
!!!YEC: Copyright 2022 Narodowy Instytut Fryderyka Chopina (https://polishscores.org)
!!!YEM: License CC-BY-4.0 (https://creativecommons.org/licenses/by/4.0)
!!!SMS-siglum: PL-STAb
!!!SMS-shelfmark: 8a
!!!SMS-shelfwork: 001-004 M
!!!SMS-variant:
!!!SMS-altvar:
!!!NIFC-rismSourceID: 301050561
!!!NIFC-rismChildID: 301050561
!!!NIFC-islandoraID: pl-stab:1903
!!!URL-pdf-islandora: https://repozytorium.nifc.pl/islandora/object/pl-stab%3A1903/datastream/PDF/view
!!!URL-scan: https://polish.musicsources.pl/pl/lokalizacje/galeria/rekopisy/4640 @EN{Scan on Polish Music Sources Website} @PL{Skany w portalu Dziedzictwo Muzyki Polskiej w otwartym dostępie}
!!!IIIF:
!!!ONB-nifc: UWAGA: części Requiem: 1. Requiem aeternam, 2. Kyrie, 3. Dies irae, 4. Domine Jesu Christe, 5. Sanctus, 6. Benedictus, 7. Agnus Dei, 8. Lux aeterna
!!!AIN: 1 alto 1 bass 2 clara 2 cor 1 organ 1 soprn 1 tenor 2 violn
!!!key: E-
**kern	**fba	**dynam	**kern	**dynam	**kern	**dynam	**kern	**text	**kern	**text	**kern	**text	**kern	**text	**kern	**kern	**kern	**dynam	**kern	**dynam
*part11	*	*	*part10	*	*part9	*	*part8	*	*part7	*	*part6	*	*part5	*	*part4	*part3	*part2	*	*part1	*
*staff11	*	*	*staff10	*	*staff9	*	*staff8	*	*staff7	*	*staff6	*	*staff5	*	*staff4	*staff3	*staff2	*	*staff1	*
*I"Organo	*	*	*I"Violino Secundo	*	*I"Violino Primo	*	*I"Baſso	*	*I"Tenor	*	*I"Alto	*	*I"Canto	*	*I"Cornu Secundo in Dis	*I"Cornu Primo in Dis	*I"Clarinetto Secundo in Es !	*	*I"Clarinetto Primo in Es	*
*	*	*	*mI"Violino II	*	*mI"Violino I	*	*mI"Basso	*	*mI"Tenore	*	*	*	*mI"Soprano	*	*mI"Corno II in D#	*mI"Corno I in D#	*mI"Clarinetto II in Eb	*	*mI"Clarinetto I in Eb	*
*I'org	*	*	*I'vl 2	*	*I'vl 1	*	*I'B	*	*I'T	*	*I'A	*	*I'S	*	*I'cor 2 in D|x	*I'cor 1 in D|x	*I'cl 2 in E|b	*	*I'cl 1 in E|b	*
*Iorgan	*	*	*Ivioln	*	*Ivioln	*	*Ibass	*	*Itenor	*	*Ialto	*	*Isoprn	*	*Icor	*Icor	*Iclara	*	*Iclara	*
*ICklav	*	*	*ICstr	*	*ICstr	*	*ICvox	*	*ICvox	*	*ICvox	*	*ICvox	*	*ICbras	*ICbras	*ICww	*	*ICww	*
*IGcont	*	*	*IGacmp	*	*IGacmp	*	*IGcoro	*	*IGcoro	*	*IGcoro	*	*IGcoro	*	*IGacmp	*IGacmp	*IGacmp	*	*IGacmp	*
*clefF4	*	*	*clefG2	*	*clefG2	*	*clefF4	*	*clefC4	*	*clefC3	*	*clefC1	*	*clefG2	*clefG2	*clefG2	*	*clefG2	*
*	*	*	*	*	*	*	*	*	*mclefGv2	*	*mclefG2	*	*mclefG2	*	*	*	*	*	*	*
*	*	*	*	*	*	*	*	*	*	*	*	*	*	*	*ITrd5c9	*ITrd5c9	*ITrd1c2	*	*ITrd1c2	*
*k[b-e-a-]	*	*	*k[b-e-a-]	*	*k[b-e-a-]	*	*k[b-e-a-]	*	*k[b-e-a-]	*	*k[b-e-a-]	*	*k[b-e-a-]	*	*k[b-e-a-]	*k[b-e-a-]	*k[b-e-a-]	*	*k[b-e-a-]	*
*E-:	*	*	*E-:	*	*E-:	*	*E-:	*	*E-:	*	*E-:	*	*E-:	*	*E-:	*E-:	*E-:	*	*E-:	*
*M3/4	*	*	*M3/4	*	*M3/4	*	*M3/4	*	*M3/4	*	*M3/4	*	*M3/4	*	*M3/4	*M3/4	*M3/4	*	*M3/4	*
=1	=1	=1	=1	=1	=1	=1	=1	=1	=1	=1	=1	=1	=1	=1	=1	=1	=1	=1	=1	=1
!!!OMD:
!!!OMD-mod: Adagio
*	*	*	*	*	*	*	*	*	*	*	*	*	*	*	*	*	*2\right	*	*2\right	*
!LO:TX:a:i:t=Tutti	!	!	!	!	!	!	!	!	!LO:TX:t=P:problem=znaki B- E- A-	!	!	!	!	!	!LO:TX:t=P:problem=partia in Es	!LO:TX:t=P:problem=partia in Es	!LO:TX:t=P:problem=partia in B	!	!LO:TX:t=P:problem=partia in B	!
!LO:TX:a:i:rj:t=Adagio:mod=	!	!	!LO:TX:a:i:rj:t=Adagio:mod=	!LO:DY:a:t=for.	!LO:TX:a:i:rj:t=Adagio:mod=	!LO:DY:a:t=for.	!LO:TX:a:i:rj:t=Adagio:mod=	!	!LO:TX:a:i:t=Adagio:mod=	!	!LO:TX:a:i:rj:t=Adagio:mod=	!	!LO:TX:a:i:t=Adagio:mod=	!	!LO:TX:a:i:t=Adagio:mod=	!LO:TX:a:i:t=Adagio:mod=	!LO:TX:a:i:t=Adagio:mod=	!	!LO:TX:a:i:rj:t=Adagio:mod=	!
!	!	!	!LO:SIC:s=(4.g/:v	!	!	!	!	!	!	!	!	!	!	!	!	!	!	!	!	!
8E-\L	.	.	4.g/	f	(4.b-\	f	4.E-\	Do-	4.e-\	Do-	4.g\	Do-	4.b-\	Do-	4E-/	4e-\	2ee-\	.	2.gg\	.
8E-\	.	.	.	.	.	.	.	.	.	.	.	.	.	.	.	.	.	.	.	.
8E-\	.	.	.	.	.	.	.	.	.	.	.	.	.	.	4E-/	4e-\	.	.	.	.
8E-\	.	.	16f/LL	.	16a-\LL	.	8E-\	-mi-	8e-\	-mi-	8g\	-mi-	8b-\	-mi-	.	.	.	.	.	.
!	!	!	!LO:SIC:s=16g/JJ):v	!	!	!	!	!	!	!	!	!	!	!	!	!	!	!	!	!
.	.	.	16g/JJ	.	16b-\JJ)	.	.	.	.	.	.	.	.	.	.	.	.	.	.	.
!	!	!	!LO:SIC:s=(16a-/LL:v	!	!	!	!	!	!	!	!	!	!	!	!	!	!	!	!	!
8E-\	.	.	16a-/LL	.	(16cc\LL	.	4E-\	-ne	4e-\	-ne	4g\	-ne	4b-\	-ne	4E-/	4e-\	4b-\	.	.	.
!	!	!	!LO:SIC:s=16g/):v	!	!	!	!	!	!	!	!	!	!	!	!	!	!	!	!	!
.	.	.	16g/	.	16b-\)	.	.	.	.	.	.	.	.	.	.	.	.	.	.	.
!	!	!	!LO:SIC:s=(16f/:v	!	!	!	!	!	!	!	!	!	!	!	!	!	!	!	!	!
8E-\J	.	.	16f/	.	(16a-\	.	.	.	.	.	.	.	.	.	.	.	.	.	.	.
!	!	!	!LO:SIC:s=16g/JJ):v	!	!	!	!	!	!	!	!	!	!	!	!	!	!	!	!	!
.	.	.	16g/JJ	.	16b-\JJ)	.	.	.	.	.	.	.	.	.	.	.	.	.	.	.
=2	=2	=2	=2	=2	=2	=2	=2	=2	=2	=2	=2	=2	=2	=2	=2	=2	=2	=2	=2	=2
*	*	*	*	*	*	*	*2\right	*	*2\right	*	*	*	*	*	*	*2\right	*	*	*	*
8E-\L	6 4	.	4a-/	.	4cc\	.	2E-\	Je-	2e-\	Je-	(4a-\	Je-	(4cc\	Je-	2.E-/	2.e-\	4cc\	.	4aa-\	.
8E-\	.	.	.	.	.	.	.	.	.	.	.	.	.	.	.	.	.	.	.	.
8E-\	7 2	.	4f/	.	4dd\	.	.	.	.	.	4f\)	.	4dd\)	.	.	.	4dd\	.	4ff\	.
8E-\	.	.	.	.	.	.	.	.	.	.	.	.	.	.	.	.	.	.	.	.
8E-\	8 3	.	4g/	.	4ee-\	.	4E-\	-su	4e-\	-su	4g\	-su	4ee-\	-su	.	.	4ee-\	.	4gg\	.
8E-\J	.	.	.	.	.	.	.	.	.	.	.	.	.	.	.	.	.	.	.	.
=3	=3	=3	=3	=3	=3	=3	=3	=3	=3	=3	=3	=3	=3	=3	=3	=3	=3	=3	=3	=3
8A-\L	.	.	(16b-/LL	.	(16dd\LL	.	4A-\	Chri-	4e-\	Chri-	16b-\LL	Chri-	16dd\LL	Chri-	2.r	2.r	4cc\	.	4aa-\	.
.	.	.	16a-/)	.	16cc\)	.	.	.	.	.	16a-\	.	16cc\	.	.	.	.	.	.	.
8A-\	.	.	(16g/	.	(16b-\	.	.	.	.	.	16g\	.	16b-\	.	.	.	.	.	.	.
.	.	.	16a-/JJ)	.	16cc\JJ)	.	.	.	.	.	16a-\JJ	.	16cc\JJ	.	.	.	.	.	.	.
!	!	!	!	!	!LO:SIC:s=4b-/|:v	!	!	!LO:MO:mod=-ste,	!	!LO:MO:mod=-ste,	!	!LO:MO:mod=-ste,	!	!LO:MO:mod=-ste,	!	!	!	!	!	!
8B-\	6	.	4g/|	.	4b-/	.	4B-\	-ste	4d\	-ste	4g\	-ste	4b-\	-ste	.	.	4b-\	.	4gg\	.
8B-\	.	.	.	.	.	.	.	.	.	.	.	.	.	.	.	.	.	.	.	.
!	!	!	!	!	!LO:SIC:s=4a-/|:v	!	!	!LO:MO:mod=Rex	!	!LO:MO:mod=Rex	!	!LO:MO:mod=Rex	!	!LO:MO:mod=Rex	!	!	!	!	!	!
8Bn\	5	.	4f/|	.	4a-/	.	4Bn\	rex	4d\	rex	4f\	rex	4a-\	rex	.	.	4a-\	.	4ff\	.
8B\J	.	.	.	.	.	.	.	.	.	.	.	.	.	.	.	.	.	.	.	.
=4	=4	=4	=4	=4	=4	=4	=4	=4	=4	=4	=4	=4	=4	=4	=4	=4	=4	=4	=4	=4
!	!	!	!	!	!	!	!	!	!	!	!	!LO:MO:mod=glo-	!	!LO:MO:mod=glo-	!	!	!	!	!	!
!	!	!	!	!	!	!	!	!LO:MO:mod=glo-	!	!	!	!	!	!	!	!	!	!	!	!
4c\	4	.	(8.f/L	.	(8.a-/L	.	8c\	Glo-	8c\	glo-	8f\	Glo-	8a-\	Glo-	4r	4r	4a-/	.	4ff\	.
.	.	.	.	.	.	.	8c\	-ri-	8c\	-ri-	8f\	-ri-	8a-\	-ri-	.	.	.	.	.	.
.	.	.	32e-/LL	.	32g/LL	.	.	.	.	.	.	.	.	.	.	.	.	.	.	.
.	.	.	32f/JJJ)	.	32a-/JJJ)	.	.	.	.	.	.	.	.	.	.	.	.	.	.	.
!	!	!	!	!	!	!	!	!LO:MO:mod=-ae,	!	!LO:MO:mod=-ae,	!	!LO:MO:mod=-ae,	!	!LO:MO:mod=-ae,	!	!	!	!	!	!
!	!	!	!LO:SIC:s=8e-/|L:v	!	!	!	!	!	!	!	!	!	!	!	!	!	!	!	!	!
4C/	3	.	8e-/L	.	8g/L|	.	4C/	-e	4c\	-ae	4e-\	-e	4g\	-e	4r	4r	4g/	.	4ee-\	.
!	!	!	!LO:SIC:s=8e-/|J:v	!	!	!	!	!	!	!	!	!	!	!	!	!	!	!	!	!
.	.	.	8e-/	.	8g/J|	.	.	.	.	.	.	.	.	.	.	.	.	.	.	.
!	!	!	!LO:SIC:s=8B-/L:v	!	!	!	!	!	!	!	!	!	!	!	!	!	!	!	!	!
8r	.	.	8B-/	.	(16b-/LL	.	8r	.	8r	.	8r	.	8r	.	8r	8r	8r	.	8r	.
.	.	.	.	.	16g/)	.	.	.	.	.	.	.	.	.	.	.	.	.	.	.
!	!	!	!	!	!	!	!	!LO:MO:mod=Rex	!	!LO:MO:mod=Rex	!	!LO:MO:mod=Rex	!	!LO:MO:mod=Rex	!	!	!	!	!	!
8G\	6	.	8B-/J	.	(16f/	.	8G\	rex	8B-\	rex	8b-\	rex	8ee-\	rex	8e-\	8g\	8b-\	.	8ee-\	.
.	.	.	.	.	16e-/JJ)	.	.	.	.	.	.	.	.	.	.	.	.	.	.	.
=5	=5	=5	=5	=5	=5	=5	=5	=5	=5	=5	=5	=5	=5	=5	=5	=5	=5	=5	=5	=5
!LO:TX:t=P:problem=mixed beam	!	!	!	!	!	!	!	!	!	!	!	!LO:MO:mod=glo-	!	!LO:MO:mod=glor-	!	!	!	!	!	!
!	!	!	!	!	!	!	! 	!LO:MO:mod=glo-	!	!	!	!	!	!	!	!	!	!	!	!
!	!	!	!	!	!	!	!LO:SIC:s=(4A-\:v	!	!	!	!	!	!LO:SIC:s=(4ff\:v	!	!	!	!	!	!	!
8A-\L	6	.	8c/L	.	16f/LL	.	4A-\	Glo-	(4c\	glo-	(4a-\	Glo-	4ff\	Glo-	4f\	4a-\	4a-/	.	4ff\	.
.	.	.	.	.	16a-/	.	.	.	.	.	.	.	.	.	.	.	.	.	.	.
8A-\	.	.	16B-/L	.	16g/	.	.	.	.	.	.	.	.	.	.	.	.	.	.	.
.	.	.	16A-/JJ	.	16f/JJ	.	.	.	.	.	.	.	.	.	.	.	.	.	.	.
!	!	!	!	!	!	!	!LO:SIC:s=4B-X\):v	!	!	!	!	!	!LO:SIC:s=4ee-\):v	!	!	!	!	!	!	!
8B-\	4	.	4G/	.	4e-/	.	4B-X\	.	4B-\)	.	4g\)	.	4ee-\	.	4e-\	4g\	4g/	.	4ee-\	.
8B-\	.	.	.	.	.	.	.	.	.	.	.	.	.	.	.	.	.	.	.	.
8BB-/	3	.	4A-/	.	4d/	.	4BB-/	-ri-	4B-\	-ri-	4f\	-ri-	4dd\	-ri-	4B-/	4f\	4f/	.	4dd\	.
8BB-/J	.	.	.	.	.	.	.	.	.	.	.	.	.	.	.	.	.	.	.	.
!	!	!	!	!	!LO:LB:g=original	!	!	!	!	!	!	!	!	!	!	!	!	!	!	!
=6	=6	=6	=6	=6	=6	=6	=6	=6	=6	=6	=6	=6	=6	=6	=6	=6	=6	=6	=6	=6
!	!	!	!	!	!	!	!	!LO:MO:mod=-ae,	!	!LO:MO:mod=-ae,	!	!LO:MO:mod=-ae,	!	!LO:MO:mod=-ae,	!	!	!	!	!	!
4E-\	.	.	8G/L	.	8e-/L	.	4E-\	-ae	4B-\	-ae	4g\	-ae	4ee-\	-ae	4G/	4e-\	4g/	.	4ee-\	.
.	.	.	8B-/J	.	8g/J	.	.	.	.	.	.	.	.	.	.	.	.	.	.	.
4EE-/	.	.	4G/	.	4e-/	.	4r	.	4r	.	4r	.	4r	.	4G/	4e-\	4g/	.	4ee-\	.
!	!	!	!	!	!	!	!	!	!LO:MO:mod=!null:null	!	!	!	!	!	!	!	!	!	!	!
!	!	!	!	!	!	!	!	!	!LO:TX:a:i:t=Solo	!	!	!	!	!	!	!	!	!	!	!
4r	.	.	4r	.	4r	.	4r	.	4r	.	4r	.	4r	.	4r	4r	4r	.	4r	.
!	!	!	!LO:LB:g=original	!	!	!	!	!	!	!	!LO:LB:g=original	!	!LO:LB:g=original	!	!	!	!	!	!LO:LB:g=original	!
=7	=7	=7	=7	=7	=7	=7	=7	=7	=7	=7	=7	=7	=7	=7	=7	=7	=7	=7	=7	=7
*	*	*	*	*	*	*	*	*	*	*	*2\right	*	*	*	*	*	*	*	*	*
!	!	!	!	!	!	!	!	!	!	!	!LO:MO:mod=!LO&colon;TX&colon;a&colon;i&colon;t=Solo	!	!	!	!	!	!	!	!LO:MO:mod=!LO&colon;TX&colon;a&colon;i&colon;t=Solo	!
!	!	!LO:DY:a:rj:t=p.	!	!LO:DY:a:t=p.	!	!LO:DY:a:rj:t=p.	!	!	!	!	!LO:TX:a:i:rj:t=Solo	!	!	!	!	!	!LO:TX:a:i:t=Solo	!	!LO:TX:a:i:rj:t=Solo	!
!LO:MO:mod=!LO&colon;TX&colon;a&colon;i&colon;t=Solo	!	!	!	!	!	!	!	!	!LO:MO:mod=!LO&colon;TX&colon;a&colon;i&colon;t=Solo	!	!	!	!	!	!	!	!	!	!	!
!null	!	!	!	!	!	!	!	!	!null	!	!	!	!	!	!	!	!	!	!	!
!	!	!	!	!	!	!	!	!	!	!	!	!LO:MO:mod=li-	!	!	!	!	!	!	!	!
8E-\	.	p	(8g/L	p	(8b-/L	p	0.r	.	2g\	li-	2b-\	Li-	0.r	.	0.r	0.r	2gg\	.	2bb-\	.
!LO:MO:mod=!null:null	!	!	!	!	!	!	!	!	!	!	!	!	!	!	!	!	!	!	!	!
!LO:TX:a:i:t=Solo	!	!	!	!	!	!	!	!	!	!	!	!	!	!	!	!	!	!	!	!
8r	.	.	8e-/)	.	8g/)	.	.	.	.	.	.	.	.	.	.	.	.	.	.	.
8E-\	.	.	(8g/	.	(8b-/	.	.	.	.	.	.	.	.	.	.	.	.	.	.	.
8r	.	.	8e-/)	.	8g/)	.	.	.	.	.	.	.	.	.	.	.	.	.	.	.
8E-\	.	.	(8g/	.	(8b-/	.	.	.	8f\	-be-	8a-\	-be-	.	.	.	.	8ff\L	.	8aa-\L	.
8r	.	.	8e-/J)	.	8g/J)	.	.	.	8e-\	-ra	8g\	-ra	.	.	.	.	8ee-\J	.	8gg\J	.
!LO:LB:g=original	!	!	!	!	!	!	!	!	!LO:LB:g=original	!	!	!	!	!	!	!	!LO:LB:g=original	!	!	!
=8	=8	=8	=8	=8	=8	=8	=8	=8	=8	=8	=8	=8	=8	=8	=8	=8	=8	=8	=8	=8
8B-\	.	.	8r	.	8r	.	.	.	8e-\	a-	8g\	a-	.	.	.	.	8ee-\L	.	8gg\L	.
8r	.	.	8d/L|	.	8f/L|	.	.	.	8d\	-ni-	8f\	-ni-	.	.	.	.	8dd\J	.	8ff\J	.
!	!	!	!	!	!	!	!	!	!	!LO:MO:mod=-mas,	!	!LO:MO:mod=-mas,	!	!	!	!	!	!	!	!
8BB-/	.	.	(8e-/	.	(8g/	.	.	.	4d\	-mas	4f\	-mas	.	.	.	.	4dd\	.	4ff\	.
8r	.	.	8f/)	.	8a-/)	.	.	.	.	.	.	.	.	.	.	.	.	.	.	.
4r	.	.	(8e-/	.	(8g/	.	.	.	4r	.	4r	.	.	.	.	.	4r	.	4r	.
.	.	.	8d/J)	.	8f/J)	.	.	.	.	.	.	.	.	.	.	.	.	.	.	.
=9	=9	=9	=9	=9	=9	=9	=9	=9	=9	=9	=9	=9	=9	=9	=9	=9	=9	=9	=9	=9
*	*	*	*	*	*	*	*	*	*	*ij	*	*ij	*	*	*	*	*	*	*	*
!	!	!	!	!	!	!	!	!	!	!	!	!LO:MO:mod=li-	!	!	!	!	!	!	!	!
8B-\	.	.	(8f/L	.	(8a-/L	.	.	.	2f\	li-	2a-\	Li-	.	.	.	.	2ff\	.	2aa-\	.
8r	.	.	8d/)	.	8f/)	.	.	.	.	.	.	.	.	.	.	.	.	.	.	.
8B-\	.	.	(8f/	.	(8a-/	.	.	.	.	.	.	.	.	.	.	.	.	.	.	.
8r	.	.	8d/)	.	8f/)	.	.	.	.	.	.	.	.	.	.	.	.	.	.	.
8B-\	.	.	(8f/	.	(8a-/	.	.	.	8g\	-be-	8b-\	-be-	.	.	.	.	8gg\L	.	8bb-\L	.
8r	.	.	8d/J)	.	8f/J)	.	.	.	8f\	-ra	8a-\	-ra	.	.	.	.	8ff\J	.	8aa-\J	.
=10	=10	=10	=10	=10	=10	=10	=10	=10	=10	=10	=10	=10	=10	=10	=10	=10	=10	=10	=10	=10
8e-\	.	.	8r	.	8r	.	.	.	8f\	a-	8a-\	a-	.	.	.	.	8ff\L	.	8aa-\L	.
8r	.	.	8e-/L|	.	8g/L|	.	.	.	8e-\	-ni-	8g\	-ni-	.	.	.	.	8ee-\J	.	8gg\J	.
8E-\	.	.	(8f/	.	(8a-/	.	.	.	4e-\	-mas	4g\	-mas	.	.	.	.	4ee-\	.	4gg\	.
*	*	*	*	*	*	*	*	*	*	*Xij	*	*Xij	*	*	*	*	*	*	*	*
8r	.	.	8g/)	.	8b-/)	.	.	.	.	.	.	.	.	.	.	.	.	.	.	.
4r	.	.	(8f/	.	(8a-/	.	.	.	4r	.	4r	.	.	.	.	.	4r	.	4r	.
.	.	.	8e-/J)	.	8g/J)	.	.	.	.	.	.	.	.	.	.	.	.	.	.	.
=11	=11	=11	=11	=11	=11	=11	=11	=11	=11	=11	=11	=11	=11	=11	=11	=11	=11	=11	=11	=11
*tremolo	*	*	*	*	*	*	*	*	*	*	*	*	*	*	*	*	*	*	*	*
*2\right	*	*	*	*	*	*	*	*	*	*	*	*	*	*	*	*	*	*	*	*
!LO:MO:mod=!LO&colon;TX&colon;a&colon;i&colon;t=Tutti	!	!	!	!	!	!	!	!	!	!	!	!	!	!	!	!	!	!	!	!
!LO:TX:a:i:rj:t=Tutti	!	!	!	!LO:DY:a:t=for	!	!LO:DY:a:t=for	!	!	!	!	!	!	!	!	!	!	!	!LO:DY:a:rj:t=f.	!	!LO:DY:a:rj:t=f.
8E-\L	.	.	4.g/	f	4.b-\	f	8E-\	o-	8e-\	o-	8g\	o-	8ee-\	o-	4e-\	4g\	2.ee-\	f	2.gg\	f
8E-\	.	.	.	.	.	.	8E-\	-mni-	8e-\	-mni-	8g\	-mni-	8ee-\	-mni-	.	.	.	.	.	.
8E-\	.	.	.	.	.	.	4E-\	-um	4e-\	-um	4g\	-um	4ee-\	-um	4e-\	4g\	.	.	.	.
!	!	!	!	!	!LO:SIC:s=(16g/LL:v	!	!	!	!	!	!	!	!	!	!	!	!	!	!	!
8E-\	.	.	(16e-/LL	.	16g/LL	.	.	.	.	.	.	.	.	.	.	.	.	.	.	.
!	!	!	!	!	!LO:SIC:s=16a-/JJ):v	!	!	!	!	!	!	!	!	!	!	!	!	!	!	!
.	.	.	16f/JJ)	.	16a-/JJ	.	.	.	.	.	.	.	.	.	.	.	.	.	.	.
8E-\	.	.	8g/L|	.	16b-\LL	.	4E-\	fi-	4e-\	fi-	4g\	fi-	4ee-\	fi-	4r	4r	.	.	.	.
.	.	.	.	.	16cc\	.	.	.	.	.	.	.	.	.	.	.	.	.	.	.
8E-\J	.	.	8g/J|	.	16dd\	.	.	.	.	.	.	.	.	.	.	.	.	.	.	.
.	.	.	.	.	16ee-\JJ	.	.	.	.	.	.	.	.	.	.	.	.	.	.	.
*Xtremolo	*	*	*	*	*	*	*	*	*	*	*	*	*	*	*	*	*	*	*	*
!	!	!	!	!	!LO:LB:g=original	!	!LO:LB:g=original	!	!	!	!	!	!	!	!	!	!	!	!	!
=12	=12	=12	=12	=12	=12	=12	=12	=12	=12	=12	=12	=12	=12	=12	=12	=12	=12	=12	=12	=12
8F\L	6_ 3_	.	8a-/L	.	4.ddt\	.	4.F\	-de-	4.B-\	-de-	4.a-\	-de-	4.dd\	-de-	4r	4r	2dd\	.	2aa-\	.
8F\	.	.	8a-/	.	.	.	.	.	.	.	.	.	.	.	.	.	.	.	.	.
8F\	.	.	8a-/	.	.	.	.	.	.	.	.	.	.	.	4B-/	4f\	.	.	.	.
8F\	.	.	8a-/	.	16cc\LL	.	8F\	-li-	8B-\	-li-	8a-\	-li-	8dd\	-li-	.	.	.	.	.	.
.	.	.	.	.	16dd\JJ	.	.	.	.	.	.	.	.	.	.	.	.	.	.	.
8G\	6	.	8g/	.	8ee-\L	.	4G\	-um	4B-\	-um	4b-\	-um	4ee-\	-um	4G/	4e-\	4ee-\	.	4gg\	.
8G\J	.	.	8g/J	.	8b-\J	.	.	.	.	.	.	.	.	.	.	.	.	.	.	.
=13	=13	=13	=13	=13	=13	=13	=13	=13	=13	=13	=13	=13	=13	=13	=13	=13	=13	=13	=13	=13
*	*	*	*	*	*	*	*	*	*	*	*	*	*2\right	*	*	*	*	*	*	*
!	!	!	!	!	!	!	!	!	!	!	!	!	!	!LO:MO:mod=de-	!	!	!	!	!	!
!	!	!	!	!	!	!	!	!LO:MO:mod=de-	!	!LO:MO:mod=de-	!	!LO:MO:mod=de-	!	!	!	!	!	!	!	!
8A-\L	6_	.	(16f/LL	.	(16a-/LL	.	2A-\	De-	2c\	De-	2a-\	De-	2ff\	De	4r	4r	4ff\	.	4aa-\	.
.	.	.	16e-/)	.	16g/)	.	.	.	.	.	.	.	.	.	.	.	.	.	.	.
8A-\	.	.	(16f/	.	(16a-/	.	.	.	.	.	.	.	.	.	.	.	.	.	.	.
.	.	.	16g/JJ)	.	16b-/JJ)	.	.	.	.	.	.	.	.	.	.	.	.	.	.	.
8A-\	.	.	4f/	.	4a-/	.	.	.	.	.	.	.	.	.	4f\	4a-\	4ff\	.	4aa-\	.
8A-\	.	.	.	.	.	.	.	.	.	.	.	.	.	.	.	.	.	.	.	.
!	!	!	!	!	!	!	!	!	!	!	!	!	!	!LO:MO:mod=-fun-	!	!	!	!	!	!
8An\	5	.	4e-/	.	4g/	.	4An\	-fun-	4c\	-fun-	4g\	-fun-	4ee-\	fun-	4e-\	4g\	4ee-\	.	4gg\	.
8A\J	.	.	.	.	.	.	.	.	.	.	.	.	.	.	.	.	.	.	.	.
!	!	!	!	!	!	!	!	!	!	!	!LO:LB:g=original	!	!	!	!LO:LB:g=original	!LO:LB:g=original	!	!	!	!
=14	=14	=14	=14	=14	=14	=14	=14	=14	=14	=14	=14	=14	=14	=14	=14	=14	=14	=14	=14	=14
!	!	!	!	!	!LO:SIC:s=(8.gt/L:v	!	!	!	!	!	!	!	!	!	!	!	!	!	!	!
4B-\	4	.	(8.e-T/L	.	(8.g/L	.	4B-\	-cto-	4B-\	-cto-	4g\	-cto-	4ee-\	-cto-	4e-\	4g\	4ee-\	.	4gg\	.
.	.	.	32d/LL	.	32f/LL	.	.	.	.	.	.	.	.	.	.	.	.	.	.	.
.	.	.	32e-/JJJ)	.	32g/JJJ)	.	.	.	.	.	.	.	.	.	.	.	.	.	.	.
!	!	!	!LO:LB:g=original	!	!	!	!	!	!	!	!	!	!	!	!	!	!	!	!	!
!	!	!	!	!	!	!	!	!	!	!LO:MO:mod=-rum	!	!	!	!	!	!	!	!	!	!
!	!	!	!LO:SIC:s=8d/|L:v	!	!	!	!	!	!	!	!	!	!	!	!	!	!	!	!	!
4BB-/	3	.	8d/L	.	8f/L|	.	4BB-/	-rum	4B-\	-ru(m)	4f\	-rum	4dd\	-rum	4B-/	4f\	4dd\	.	4ff\	.
!	!	!	!LO:SIC:s=8d/|J:v	!	!	!	!	!	!	!	!	!	!	!	!	!	!	!	!	!
.	.	.	8d/J	.	8f/J|	.	.	.	.	.	.	.	.	.	.	.	.	.	.	.
!	!	!	!LO:SIC:s=(8f/L:v	!	!	!	!	!	!	!	!	!	!	!	!	!	!	!	!	!
8r	.	.	8f/L	.	(16b-/LL	.	8r	.	8r	.	8r	.	8r	.	8r	8r	4r	.	4r	.
.	.	.	.	.	16cc/)	.	.	.	.	.	.	.	.	.	.	.	.	.	.	.
8D\	6	.	16g/L	.	(16b-/	.	8D\	de	8B-\	de	8b-\	de	8ff\	de	8B-/	8f\	.	.	.	.
!	!	!	!LO:SIC:s=16f/JJ):v	!	!	!	!	!	!	!	!	!	!	!	!	!	!	!	!	!
!	!	!	!	!	!LO:SIC:s=16a-/JJ):v	!	!	!	!	!	!	!	!	!	!	!	!	!	!	!
.	.	.	16f/JJ	.	16a-X/JJ)	.	.	.	.	.	.	.	.	.	.	.	.	.	.	.
!	!	!	!	!	!	!	!	!	!LO:LB:g=original	!	!	!	!	!	!	!	!	!	!	!
=15	=15	=15	=15	=15	=15	=15	=15	=15	=15	=15	=15	=15	=15	=15	=15	=15	=15	=15	=15	=15
4E-\	.	.	(8f/L	.	(8a-/L	.	4E-\	poe-	4g\	poe-	4g\	poe-	4ee-\	poe-	4e-\	4g\	4g/	.	2.ee-\	.
.	.	.	8e-/J)	.	8g/J)	.	.	.	.	.	.	.	.	.	.	.	.	.	.	.
4C/	6\ 3	.	8r	.	8r	.	4C/	-nis	4f\	-nis	4an\	-nis	4ee-\	-nis	4f\	4f\	4a\	.	.	.
!	!	!	!	!	!LO:SIC:s=8an/|:v	!	!	!	!	!	!	!	!	!	!	!	!	!	!	!
.	.	.	8e-/|	.	8an/	.	.	.	.	.	.	.	.	.	.	.	.	.	.	.
!	!	!	!	!	!LO:SIC:s=(8.at/L:v	!	!	!	!	!	!	!	!	!	!	!	!	!	!	!
4F\	n	.	(8.cT/L	.	(8.ant/L	.	4F\	in-	4f\	in-	4a\	in-	4cc\	in-	4f\	4f\	4a\	.	.	.
.	.	.	32B-/LL	.	32g/LL	.	.	.	.	.	.	.	.	.	.	.	.	.	.	.
.	.	.	32c/JJJ)	.	32a/JJJ)	.	.	.	.	.	.	.	.	.	.	.	.	.	.	.
!	!	!	!	!	!	!	!	!	!	!	!	!	!	!	!	!	!	!	!LO:LB:g=original	!
=16	=16	=16	=16	=16	=16	=16	=16	=16	=16	=16	=16	=16	=16	=16	=16	=16	=16	=16	=16	=16
!	!	!	!	!	!LO:SIC:v:s=(8an/L	!	!	!	!	!	!	!	!	!	!	!	!	!	!	!
4D/	6_	.	(8c/L	.	(8a-/L	.	4D/	-fer-	4f\	-fer-	4b-\	-fer-	4dd\	-fer-	4B-/	4f\	2.b-\	.	2dd\	.
.	.	.	8d/J)	.	8b-/J)	.	.	.	.	.	.	.	.	.	.	.	.	.	.	.
!	!	!	!	!	!	!	!	!LO:MO:mod=-ni,	!	!LO:MO:mod=-ni,	!	!LO:MO:mod=-ni,	!	!LO:MO:mod=-ni,	!	!	!	!	!	!
4BB-/	.	.	8r	.	8r	.	4BB-/	-ni	4f\	-ni	4b-\	-ni	4dd\	-ni	4B-/	4f\	.	.	.	.
.	.	.	8d/|	.	8b-/|	.	.	.	.	.	.	.	.	.	.	.	.	.	.	.
*	*	*	*	*	*	*	*	*ij	*	*ij	*	*	*	*	*	*	*	*	*	*
4D/	.	.	(8f/L	.	(16b-/LL	.	4D/	de	4B-\	de	4b-\	de	4ff\	de	4B-/	4f\	.	.	4ff\	.
.	.	.	.	.	16cc/)	.	.	.	.	.	.	.	.	.	.	.	.	.	.	.
.	.	.	16g/L	.	(16b-/	.	.	.	.	.	.	.	.	.	.	.	.	.	.	.
.	X	.	16f/JJ)	.	16a-X/JJ)	.	.	.	.	.	.	.	.	.	.	.	.	.	.	.
!LO:LB:g=original	!	!	!	!	!LO:LB:g=original	!	!	!	!	!	!	!	!	!	!	!	!LO:LB:g=original	!	!	!
=17	=17	=17	=17	=17	=17	=17	=17	=17	=17	=17	=17	=17	=17	=17	=17	=17	=17	=17	=17	=17
!	!	!	!	!	!	!	!	!	!	!	!	!	!	!LO:MO:mod=poe-	!	!	!	!	!	!
4E-\	.	.	(8f/L	.	(8a-/L	.	4E-\	poe-	4g\	poe-	4g\	poe-	4ee-\	pe-	4e-\	4g\	4g/	.	2.ee-\	.
.	.	.	8e-/J)	.	8g/J)	.	.	.	.	.	.	.	.	.	.	.	.	.	.	.
4C/	6\ 3	.	8r	.	8r	.	4C/	-nis	4f\	-nis	4an\	-nis	4ee-\	-nis	4f\	4f\	4a\	.	.	.
.	.	.	8e-/|	.	8an/|	.	.	.	.	.	.	.	.	.	.	.	.	.	.	.
4F\	n	.	(8.cT/L	.	(8.at/L	.	4F\	in-	4f\	in-	4a\	in-	4cc\	in-	4f\	4f\	4a\	.	.	.
.	.	.	32B-/LL	.	32g/LL	.	.	.	.	.	.	.	.	.	.	.	.	.	.	.
.	.	.	32c/JJJ)	.	32a/JJJ)	.	.	.	.	.	.	.	.	.	.	.	.	.	.	.
!	!	!	!	!	!	!	!	!	!	!	!	!	!LO:LB:g=original	!	!	!	!	!	!	!
=18	=18	=18	=18	=18	=18	=18	=18	=18	=18	=18	=18	=18	=18	=18	=18	=18	=18	=18	=18	=18
!	!	!	!	!	!LO:SIC:v:s=(8an/L	!	!	!	!	!	!	!	!	!	!	!	!	!	!	!
!	!	!	!LO:SIC:s=(8c/L:v	!	!	!	!	!	!	!	!	!	!	!	!	!	!	!	!	!
4D/	6	.	8c/L	.	(8a-/L	.	4D\	-fer-	4f\	-fer-	4b-\	-fer-	4dd\	-fer-	4B-/	4f\	2.b-\	.	2dd\	.
!	!	!	!LO:SIC:s=8d/J):v	!	!	!	!	!	!	!	!	!	!	!	!	!	!	!	!	!
.	.	.	8d/J	.	8b-/J)	.	.	.	.	.	.	.	.	.	.	.	.	.	.	.
4BB-/	.	.	8r	.	8r	.	4BB-/	-ni	4f\	-ni	4b-\	-ni	4dd\	-ni	4B-/	4f\	.	.	.	.
*	*	*	*	*	*	*	*	*Xij	*	*Xij	*	*	*	*	*	*	*	*	*	*
!	!	!	!LO:SIC:s=8d/|:v	!	!	!	!	!	!	!	!	!	!	!	!	!	!	!	!	!
.	.	.	8d/	.	8b-/|	.	.	.	.	.	.	.	.	.	.	.	.	.	.	.
!	!	!	!LO:SIC:s=(8f/L:v	!	!	!	!	!	!	!	!	!	!	!	!	!	!	!	!	!
4B-\	.	.	8f/L	.	(16b-/LL	.	4D\	et	4f\	et	4b-\	et	4dd\	et	4B-/	4f\	.	.	4ff\	.
.	.	.	.	.	16a-/)	.	.	.	.	.	.	.	.	.	.	.	.	.	.	.
.	.	.	16e-/L	.	(16g/	.	.	.	.	.	.	.	.	.	.	.	.	.	.	.
!	!	!	!LO:SIC:s=16d/JJ):v	!	!	!	!	!	!	!	!	!	!	!	!	!	!	!	!	!
.	.	.	16d/JJ	.	16f/JJ)	.	.	.	.	.	.	.	.	.	.	.	.	.	.	.
=19	=19	=19	=19	=19	=19	=19	=19	=19	=19	=19	=19	=19	=19	=19	=19	=19	=19	=19	=19	=19
*	*	*	*	*	*	*	*	*	*	*	*	*	*	*	*2\right	*	*	*	*	*
!	!	!	!	!	!	!	!	!	!	!LO:MO:mod=de	!	!LO:MO:mod=de	!	!	!	!	!	!	!	!
!	!	!	!LO:SIC:s=(8d/L:v	!	!	!	!	!	!	!	!	!	!	!	!	!	!	!	!	!
4F\	n_	.	8d/L	.	(8f/L	.	2F\	de	2f\	de-	2cc\	De	2ee-\	de	2.f\	2.f\	2.cc\	.	2.ee-\	.
!	!	!	!LO:SIC:s=8c/J):v	!	!	!	!	!	!	!	!	!	!	!	!	!	!	!	!	!
.	.	.	8c/J	.	8e-/J)	.	.	.	.	.	.	.	.	.	.	.	.	.	.	.
4F\	.	.	8r	.	8r	.	.	.	.	.	.	.	.	.	.	.	.	.	.	.
.	.	.	8c/L	.	8e-/|	.	.	.	.	.	.	.	.	.	.	.	.	.	.	.
!	!	!	!	!	!	!	!	!	!	!LO:MO:mod=pro-	!	!	!	!	!	!	!	!	!	!
4An\	6 5	.	8e-/	.	(16cc/LL	.	4An\	pro-	4f\	-pro-	4cc\	pro-	4ee-\	pro-	.	.	.	.	.	.
.	.	.	.	.	16an/)	.	.	.	.	.	.	.	.	.	.	.	.	.	.	.
.	.	.	8c/J	.	(16f/	.	.	.	.	.	.	.	.	.	.	.	.	.	.	.
.	.	.	.	.	16e-/JJ)	.	.	.	.	.	.	.	.	.	.	.	.	.	.	.
=20	=20	=20	=20	=20	=20	=20	=20	=20	=20	=20	=20	=20	=20	=20	=20	=20	=20	=20	=20	=20
!	!	!	!LO:SIC:s=(8B-/L:v	!	!	!	!	!	!	!	!	!	!	!	!	!	!	!	!	!
4B-\	.	.	8B-/L	.	(8d/L	.	2B-\	-fun-	2f\	-fun-	2b-\	-fun-	2dd\	-fun-	2.B-/	2.f\	2.b-\	.	2dd\	.
!	!	!	!LO:SIC:s=8d/J):v	!	!	!	!	!	!	!	!	!	!	!	!	!	!	!	!	!
.	.	.	8d/J	.	8f/J)	.	.	.	.	.	.	.	.	.	.	.	.	.	.	.
!	!	!	!LO:LB:g=original	!	!	!	!	!	!	!	!	!	!	!	!	!	!	!	!	!
4BB-/	.	.	8r	.	8r	.	.	.	.	.	.	.	.	.	.	.	.	.	.	.
.	.	.	8d/L	.	8b-/|	.	.	.	.	.	.	.	.	.	.	.	.	.	.	.
4D\	6	.	8f/	.	8b-/L	.	4D\	-do	4f\	-do	4b-\	-do	4dd\	-do	.	.	.	.	4ff\	.
.	.	.	8f/J	.	(16an/L	.	.	.	.	.	.	.	.	.	.	.	.	.	.	.
.	.	.	.	.	16b-/JJ)	.	.	.	.	.	.	.	.	.	.	.	.	.	.	.
=21	=21	=21	=21	=21	=21	=21	=21	=21	=21	=21	=21	=21	=21	=21	=21	=21	=21	=21	=21	=21
4E-\	6	.	8e-/L	.	8g/L	.	4E-\	la-	4g\	la-	4cc\	la-	4ee-\	la-	4e-\	4g\	4cc\	.	4ee-\	.
.	.	.	16d/L	.	16f/L	.	.	.	.	.	.	.	.	.	.	.	.	.	.	.
.	.	.	16c/JJ	.	16e-/JJ	.	.	.	.	.	.	.	.	.	.	.	.	.	.	.
4F\	4	.	4B-/	.	4d/	.	4F\	.	2f\	.	4b-\	.	4dd\	.	4f\	4f\	4b-\	.	4dd\	.
4FF/	n	.	4An/	.	4c/	.	4FF/	.	.	.	4an\	.	4cc\	.	4f\	4f\	4a\	.	4cc\	.
!	!	!	!	!	!LO:LB:g=original	!	!LO:LB:g=original	!	!	!	!LO:LB:g=original	!	!	!	!	!	!	!	!	!
=22	=22	=22	=22	=22	=22	=22	=22	=22	=22	=22	=22	=22	=22	=22	=22	=22	=22	=22	=22	=22
!LO:TX:a:i:t=Solo	!	!	!	!	!	!LO:DY:a:t=p.	!	!LO:MO:mod=-cu.	!	!LO:MO:mod=-cu.	!	!LO:MO:mod=-cu.	!	!LO:MO:mod=-cu.	!	!	!LO:TX:a:i:t=Solo	!	!LO:TX:a:i:t=Solo	!
!	!	!	!	!LO:DY:t= :mod=%s	!	!	!	!	!	!	!	!	!	!	!	!	!	!	!	!
!	!	!	!	!LO:MO:mod=!LO&colon;DY&colon;ed=brack	!	!	!	!	!	!	!	!	!	!	!	!	!	!	!	!
!	!	!	!	!null	!	!	!	!	!	!	!	!	!	!	!	!	!	!	!	!
4BB-/	.	.	(8B-/L	p	(8d/L	p	4BB-/	-cu	4f\	-cu	4b-\	-cu	4dd\	-cu	4B-/	4f\	4b-\	.	4dd\	.
.	.	.	8d/)	.	8f/)	.	.	.	.	.	.	.	.	.	.	.	.	.	.	.
4r	.	.	(8B-/	.	(8d/	.	4r	.	4r	.	4r	.	4r	.	4r	4r	(4.dd\	.	(4.ff\	.
.	.	.	8d/)	.	8f/)	.	.	.	.	.	.	.	.	.	.	.	.	.	.	.
4r	.	.	(8B-/	.	(8d/	.	4r	.	4r	.	4r	.	4r	.	4r	4r	.	.	.	.
.	.	.	8d/J)	.	8f/J)	.	.	.	.	.	.	.	.	.	.	.	8b-\)	.	8dd\)	.
=23	=23	=23	=23	=23	=23	=23	=23	=23	=23	=23	=23	=23	=23	=23	=23	=23	=23	=23	=23	=23
*	*	*	*tremolo	*	*tremolo	*	*	*	*	*	*	*	*	*	*	*	*	*	*	*
!	!	!	!	!	!	!	!	!	!LO:MO:mod=!null:null	!	!	!	!	!	!	!	!	!	!	!
!	!	!	!	!	!	!	!	!	!LO:TX:a:t=14	!	!	!	!	!	!	!	!	!	!	!
4E-\	6	.	8c/L	.	8e-/L	.	0.r	.	0.r	.	0.r	.	1.r	.	0.r	0.r	8r	.	8r	.
.	.	.	8e-/	.	8g/	.	.	.	.	.	.	.	.	.	.	.	8cc\|	.	8ee-\|	.
4r	.	.	8c/	.	8e-/	.	.	.	.	.	.	.	.	.	.	.	(4.ee-\	.	(4.gg\	.
.	.	.	8e-/	.	8g/	.	.	.	.	.	.	.	.	.	.	.	.	.	.	.
4r	.	.	8c/	.	8e-/	.	.	.	.	.	.	.	.	.	.	.	.	.	.	.
.	.	.	8e-/J	.	8g/J	.	.	.	.	.	.	.	.	.	.	.	8cc\)	.	8ee-\)	.
*	*	*	*	*	*Xtremolo	*	*	*	*	*	*	*	*	*	*	*	*	*	*	*
=24	=24	=24	=24	=24	=24	=24	=24	=24	=24	=24	=24	=24	=24	=24	=24	=24	=24	=24	=24	=24
!	!	!	!	!	!LO:MO:mod=*modern:null	!	!	!	!	!	!	!	!	!	!	!	!	!	!	!
*	*	*	*	*	*null	*	*	*	*	*	*	*	*	*	*	*	*	*	*	*
*	*	*	*	*	*tremolo	*	*	*	*	*	*	*	*	*	*	*	*	*	*	*
4F\	n	.	8An/L	.	(8c/L	.	.	.	.	.	.	.	.	.	.	.	8r	.	8r	.
.	.	.	8c/	.	8e-/)	.	.	.	.	.	.	.	.	.	.	.	8cc\|	.	8ee-\|	.
4r	.	.	8A/	.	(8c/	.	.	.	.	.	.	.	.	.	.	.	(4.a\	.	(4.cc\	.
.	.	.	8c/	.	8e-/)	.	.	.	.	.	.	.	.	.	.	.	.	.	.	.
4r	.	.	8A/	.	(8c/	.	.	.	.	.	.	.	.	.	.	.	.	.	.	.
.	.	.	8c/J	.	8e-/J)	.	.	.	.	.	.	.	.	.	.	.	16b-\LL	.	16dd\LL	.
.	.	.	.	.	.	.	.	.	.	.	.	.	.	.	.	.	16cc\JJ)	.	16ee-\JJ)	.
!	!	!	!	!	!LO:MO:mod=*modern:null	!	!	!	!	!	!	!	!	!	!	!	!	!	!	!
*	*	*	*	*	*null	*	*	*	*	*	*	*	*	*	*	*	*	*	*	*
*	*	*	*Xtremolo	*	*Xtremolo	*	*	*	*	*	*	*	*	*	*	*	*	*	*	*
!	!	!	!	!	!	!	!	!	!	!	!	!	!	!	!	!	!LO:LB:g=original	!	!LO:LB:g=original	!
=25	=25	=25	=25	=25	=25	=25	=25	=25	=25	=25	=25	=25	=25	=25	=25	=25	=25	=25	=25	=25
4B-\	.	.	(8c/L	.	(8e-/L	.	.	.	.	.	.	.	2.r	.	.	.	8cc\L	.	8ee-\L	.
.	.	.	8B-/J)	.	8d/J)	.	.	.	.	.	.	.	.	.	.	.	8b-\J	.	8dd\J	.
!	!	!	!LO:SIC:s=4B-/|:v	!	!	!	!	!	!	!	!	!	!	!	!	!	!	!	!	!
4BB-/	.	.	4B-/	.	4d/|	.	.	.	.	.	.	.	.	.	.	.	4b-\	.	4dd\	.
4r	.	.	4r	.	4r	.	.	.	.	.	.	.	.	.	.	.	4r	.	4r	.
=26	=26	=26	=26	=26	=26	=26	=26	=26	=26	=26	=26	=26	=26	=26	=26	=26	=26	=26	=26	=26
!	!	!LO:DY:a:rj:t=p.	!	!	!	!	!	!	!	!	!	!	!LO:TX:a:i:t=Solo	!	!	!	!	!	!	!
4BB-/	.	p	8r	.	8r	.	.	.	.	.	.	.	2b-\	Li-	.	.	0.r	.	0.r	.
.	.	.	8B-/L|	.	8d/L|	.	.	.	.	.	.	.	.	.	.	.	.	.	.	.
4r	.	.	(8d/	.	(8f/	.	.	.	.	.	.	.	.	.	.	.	.	.	.	.
.	.	.	8B-/)	.	8d/)	.	.	.	.	.	.	.	.	.	.	.	.	.	.	.
4r	.	.	(8d/	.	(8f/	.	.	.	.	.	.	.	8dd\	-be-	.	.	.	.	.	.
.	.	.	8B-/J)	.	8d/J)	.	.	.	.	.	.	.	8ff\	-ra	.	.	.	.	.	.
=27	=27	=27	=27	=27	=27	=27	=27	=27	=27	=27	=27	=27	=27	=27	=27	=27	=27	=27	=27	=27
4BB-/	.	.	8r	.	8r	.	0.r	.	0.r	.	0.r	.	8.ff\L	e-	0.r	0.r	.	.	.	.
.	.	.	8B-/L|	.	8d/L|	.	.	.	.	.	.	.	.	.	.	.	.	.	.	.
.	.	.	.	.	.	.	.	.	.	.	.	.	16ee-\Jk	.	.	.	.	.	.	.
4r	.	.	(8d/	.	(8f/	.	.	.	.	.	.	.	4dd\	-as	.	.	.	.	.	.
.	.	.	8B-/)	.	8d/)	.	.	.	.	.	.	.	.	.	.	.	.	.	.	.
4r	.	.	(8d/	.	(8f/	.	.	.	.	.	.	.	8r	.	.	.	.	.	.	.
.	.	.	8B-/J)	.	8d/J)	.	.	.	.	.	.	.	8ff\	de	.	.	.	.	.	.
!LO:LB:g=original	!	!	!LO:LB:g=original	!	!	!	!	!	!	!	!	!	!	!	!	!	!	!	!	!
=28	=28	=28	=28	=28	=28	=28	=28	=28	=28	=28	=28	=28	=28	=28	=28	=28	=28	=28	=28	=28
4E-\	6	.	8r	.	8r	.	.	.	.	.	.	.	2gg\	o-	.	.	.	.	.	.
.	.	.	8c/L|	.	8e-/L|	.	.	.	.	.	.	.	.	.	.	.	.	.	.	.
4r	.	.	(8e-/	.	(8g/	.	.	.	.	.	.	.	.	.	.	.	.	.	.	.
.	.	.	8c/)	.	8e-/)	.	.	.	.	.	.	.	.	.	.	.	.	.	.	.
4r	.	.	(8e-/	.	(8g/	.	.	.	.	.	.	.	16ff\LL	-re	.	.	.	.	.	.
.	.	.	.	.	.	.	.	.	.	.	.	.	16ee-\JJ	.	.	.	.	.	.	.
!	!	!	!	!	!	!	!	!	!	!	!	!	!LO:LB:g=original	!	!	!	!	!	!	!
.	.	.	8c/J)	.	8e-/J)	.	.	.	.	.	.	.	16dd\LL	le-	.	.	.	.	.	.
.	.	.	.	.	.	.	.	.	.	.	.	.	16cc\JJ	.	.	.	.	.	.	.
=29	=29	=29	=29	=29	=29	=29	=29	=29	=29	=29	=29	=29	=29	=29	=29	=29	=29	=29	=29	=29
4F\	n	.	8r	.	8r	.	.	.	.	.	.	.	8b-\L	-o-	.	.	.	.	.	.
!	!	!	!	!	!LO:SIC:s=(8c/|L:v	!	!	!	!	!	!	!	!	!	!	!	!	!	!	!
.	.	.	8An/L|	.	8c/|	.	.	.	.	.	.	.	8an\J	.	.	.	.	.	.	.
!	!	!	!	!	!LO:LB:g=original	!	!	!	!	!	!	!	!	!LO:MO:mod=-nis,	!	!	!	!	!	!
!	!	!	!	!	!LO:SIC:s=(8e-/:v	!	!	!	!	!	!	!	!	!	!	!	!	!	!	!
4r	.	.	(8c/	.	8e-/L|	.	.	.	.	.	.	.	4a\	-nis	.	.	.	.	.	.
!	!	!	!	!	!LO:SIC:s=8c/):v	!	!	!	!	!	!	!	!	!	!	!	!	!	!	!
.	.	.	8A/)	.	8c/|	.	.	.	.	.	.	.	.	.	.	.	.	.	.	.
!	!	!	!	!	!LO:SIC:s=(8e-/:v	!	!	!	!	!	!	!	!	!	!	!	!	!	!	!
4r	.	.	(8c/	.	8e-/|	.	.	.	.	.	.	.	4r	.	.	.	.	.	.	.
!	!	!	!	!	!LO:SIC:s=8c/J):v	!	!	!	!	!	!	!	!	!	!	!	!	!	!	!
.	.	.	8A/J)	.	8c/J	.	.	.	.	.	.	.	.	.	.	.	.	.	.	.
=30	=30	=30	=30	=30	=30	=30	=30	=30	=30	=30	=30	=30	=30	=30	=30	=30	=30	=30	=30	=30
4BB-/	.	.	8r	.	8r	.	.	.	.	.	.	.	2b-\	ne	.	.	0.r	.	0.r	.
.	.	.	8B-/L|	.	8d/L|	.	.	.	.	.	.	.	.	.	.	.	.	.	.	.
4r	.	.	(8d/	.	(8f/	.	.	.	.	.	.	.	.	.	.	.	.	.	.	.
.	.	.	8B-/)	.	8d/)	.	.	.	.	.	.	.	.	.	.	.	.	.	.	.
!	!	!	!	!	!	!	!	!	!	!	!	!	!	!LO:MO:mod=ab-	!	!	!	!	!	!
4r	.	.	(8d/	.	(8f/	.	.	.	.	.	.	.	8dd\L	ab	.	.	.	.	.	.
.	.	.	8B-/J)	.	8d/J)	.	.	.	.	.	.	.	8ff\J	.	.	.	.	.	.	.
=31	=31	=31	=31	=31	=31	=31	=31	=31	=31	=31	=31	=31	=31	=31	=31	=31	=31	=31	=31	=31
!	!	!	!	!	!	!	!	!	!	!	!	!	!	!LO:MO:mod=-sor-	!	!	!	!	!	!
4BB-/	.	.	8r	.	8r	.	0.r	.	0.r	.	0.r	.	8.ff\	sor-	0.r	0.r	.	.	.	.
.	.	.	8B-/L|	.	8d/L|	.	.	.	.	.	.	.	.	.	.	.	.	.	.	.
.	.	.	.	.	.	.	.	.	.	.	.	.	16ee-\	-be-	.	.	.	.	.	.
4r	.	.	(8d/	.	(8f/	.	.	.	.	.	.	.	4dd\	-at	.	.	.	.	.	.
.	.	.	8B-/)	.	8d/)	.	.	.	.	.	.	.	.	.	.	.	.	.	.	.
4r	.	.	(8d/	.	(8f/	.	.	.	.	.	.	.	8r	.	.	.	.	.	.	.
.	.	.	8B-/J)	.	8d/J)	.	.	.	.	.	.	.	8dd\	e-	.	.	.	.	.	.
=32	=32	=32	=32	=32	=32	=32	=32	=32	=32	=32	=32	=32	=32	=32	=32	=32	=32	=32	=32	=32
8E-\	6	.	8r	.	8r	.	.	.	.	.	.	.	16dd\LL	.	.	.	.	.	.	.
.	.	.	.	.	.	.	.	.	.	.	.	.	16cc\JJ	.	.	.	.	.	.	.
8r	.	.	8c/	.	8e-/	.	.	.	.	.	.	.	16ee-\LL	-as	.	.	.	.	.	.
.	.	.	.	.	.	.	.	.	.	.	.	.	16cc\JJ	.	.	.	.	.	.	.
8F\	4	.	8r	.	8r	.	.	.	.	.	.	.	4b-\	tar-	.	.	.	.	.	.
8r	.	.	8B-/	.	8d/	.	.	.	.	.	.	.	.	.	.	.	.	.	.	.
8FF/	n	.	8r	.	8r	.	.	.	.	.	.	.	4an\	-ta-	.	.	.	.	.	.
8r	.	.	8An/	.	8c/	.	.	.	.	.	.	.	.	.	.	.	.	.	.	.
=33	=33	=33	=33	=33	=33	=33	=33	=33	=33	=33	=33	=33	=33	=33	=33	=33	=33	=33	=33	=33
!	!	!	!	!	!	!	!	!	!	!	!	!	!	!LO:MO:mod=-rus,	!	!	!	!	!	!
4BB-/	.	.	8B-/L|	.	8d/L|	.	.	.	.	.	.	.	4b-\	-rus	.	.	.	.	.	.
.	.	.	(16d/L	.	(16f/L	.	.	.	.	.	.	.	.	.	.	.	.	.	.	.
.	.	.	16e-/JJ)	.	16g/JJ)	.	.	.	.	.	.	.	.	.	.	.	.	.	.	.
4r	.	.	8d/L|	.	8f/L|	.	.	.	.	.	.	.	4r	.	.	.	.	.	.	.
.	.	.	8c/J|	.	8e-/J|	.	.	.	.	.	.	.	.	.	.	.	.	.	.	.
.	.	.	.	.	8qqe-/	.	.	.	.	.	.	.	.	.	.	.	.	.	.	.
4r	.	.	4B-/	.	4d/	.	.	.	.	.	.	.	8r	.	.	.	.	.	.	.
.	.	.	.	.	.	.	.	.	.	.	.	.	8b-\	ne	.	.	.	.	.	.
=34	=34	=34	=34	=34	=34	=34	=34	=34	=34	=34	=34	=34	=34	=34	=34	=34	=34	=34	=34	=34
!	!	!	!	!	!	!	!	!	!	!	!	!	!	!LO:MO:mod=ca-	!	!	!	!	!	!
4B-\	.	.	8r	.	8r	.	.	.	.	.	.	.	8.ff\L	Ca-	.	.	1.r	.	1.r	.
.	.	.	8B-/L|	.	8d/L|	.	.	.	.	.	.	.	.	.	.	.	.	.	.	.
.	.	.	.	.	.	.	.	.	.	.	.	.	16dd\Jk	.	.	.	.	.	.	.
!	!	!	!	!	!	!	!	!	!	!	!	!	!	!LO:MO:mod=-dant,	!	!	!	!	!	!
4r	.	.	(8d/	.	(8f/	.	.	.	.	.	.	.	4b-\	-dant	.	.	.	.	.	.
.	.	.	8B-/)	.	8d/)	.	.	.	.	.	.	.	.	.	.	.	.	.	.	.
4r	.	.	(8d/	.	(8f/	.	.	.	.	.	.	.	8r	.	.	.	.	.	.	.
.	.	.	8B-/J)	.	8d/J)	.	.	.	.	.	.	.	8b-\	ne	.	.	.	.	.	.
!	!	!	!LO:LB:g=original	!	!	!	!	!	!	!	!	!	!LO:LB:g=original	!	!	!	!	!	!	!
=35	=35	=35	=35	=35	=35	=35	=35	=35	=35	=35	=35	=35	=35	=35	=35	=35	=35	=35	=35	=35
!	!	!	!	!	!	!	!	!	!	!	!	!	!	!LO:MO:mod=ca-	!	!	!	!	!	!
4A-X\	4 2	.	8r	.	8r	.	1.r	.	1.r	.	1.r	.	8.ff\L	Ca-	1.r	1.r	.	.	.	.
.	.	.	8B-/L|	.	8d/L|	.	.	.	.	.	.	.	.	.	.	.	.	.	.	.
.	.	.	.	.	.	.	.	.	.	.	.	.	16dd\Jk	.	.	.	.	.	.	.
!	!	!	!	!	!	!	!	!	!	!	!	!	!	!LO:MO:mod=-dant,	!	!	!	!	!	!
4r	.	.	(8d/	.	(8f/	.	.	.	.	.	.	.	4b-\	-dant	.	.	.	.	.	.
.	.	.	8B-/)	.	8d/)	.	.	.	.	.	.	.	.	.	.	.	.	.	.	.
4r	.	.	(8d/	.	(8f/	.	.	.	.	.	.	.	8r	.	.	.	.	.	.	.
*	*	*	*	*	*	*	*	*	*	*	*	*	*	*ij	*	*	*	*	*	*
.	.	.	8B-/J)	.	8d/J)	.	.	.	.	.	.	.	8b-\	ne	.	.	.	.	.	.
!	!	!	!	!	!LO:LB:g=original	!	!	!	!	!	!	!	!	!	!	!	!	!	!	!
=36	=36	=36	=36	=36	=36	=36	=36	=36	=36	=36	=36	=36	=36	=36	=36	=36	=36	=36	=36	=36
!	!	!	!	!	!	!	!	!	!	!	!	!	!	!LO:MO:mod=ca-	!	!	!	!	!	!
4G\	6	.	4B-/	.	8e-/L	.	.	.	.	.	.	.	8.ee-\	Ca-	.	.	2.r	.	2.r	.
.	.	.	.	.	(8g/	.	.	.	.	.	.	.	.	.	.	.	.	.	.	.
.	.	.	.	.	.	.	.	.	.	.	.	.	32ff\LLL	-dant	.	.	.	.	.	.
*	*	*	*	*	*	*	*	*	*	*	*	*	*	*Xij	*	*	*	*	*	*
.	.	.	.	.	.	.	.	.	.	.	.	.	32ee-\JJJ	.	.	.	.	.	.	.
8A-\L	4 3	.	4B-/	.	8f/	.	.	.	.	.	.	.	8dd\	in	.	.	.	.	.	.
8G\	6	.	.	.	8e-/	.	.	.	.	.	.	.	8ee-\	ob-	.	.	.	.	.	.
8F\	6	.	4B-/	.	8d/	.	.	.	.	.	.	.	8ff\L	-ſcu-	.	.	.	.	.	.
8E-\J	.	.	.	.	8e-/J)	.	.	.	.	.	.	.	8gg\J	.	.	.	.	.	.	.
=37	=37	=37	=37	=37	=37	=37	=37	=37	=37	=37	=37	=37	=37	=37	=37	=37	=37	=37	=37	=37
!	!	!	!	!	!	!	!	!	!	!	!	!	!	!LO:MO:mod=-rum.	!	!	!	!	!	!
2D\	6 -5r	.	2B-;/	.	2f;/	.	2.r;	.	2.r;	.	2.r;	.	2aa-X\	-rum	2.r;	2.r;	2.r;	.	2.r;	.
4r;	.	.	4r	.	4r	.	.	.	.	.	.	.	4r;	.	.	.	.	.	.	.
!LO:LB:g=original	!	!	!	!	!	!	!	!	!	!	!	!	!	!	!	!	!	!	!	!
=38	=38	=38	=38	=38	=38	=38	=38	=38	=38	=38	=38	=38	=38	=38	=38	=38	=38	=38	=38	=38
!	!	!	!	!	!	!	!	!	!LO:MO:mod=!null:null	!	!	!	!	!	!	!	!	!	!	!
!	!	!	!	!	!	!	!	!	!	!	!LO:MO:mod=!LO&colon;TX&colon;a&colon;i&colon;t=Solo	!	!	!	!	!	!	!	!	!
!	!	!	!	!	!	!	!	!	!LO:TX:a:t=12	!	!LO:TX:a:i:rj:t=Solo	!	!	!	!	!	!LO:TX:a:i:t=Solo	!	!LO:TX:a:i:t=Solo	!
!	!	!	!	!	!	!	!	!	!	!	!	!	!LO:MO:mod=!LO&colon;TX&colon;a&colon;i&colon;t=Solo	!	!	!	!	!	!	!
!	!	!	!	!	!	!	!	!	!	!	!	!	!null	!	!	!	!	!	!	!
4E-\	.	.	(8g/L	.	(8b-/L	.	0.r	.	0.r	.	4b-\	Sed	4gg\	Sed	0.r	0.r	2b-\	.	2gg\	.
.	.	.	8e-/)	.	8g/)	.	.	.	.	.	.	.	.	.	.	.	.	.	.	.
!	!	!	!	!	!	!	!	!	!	!	!	!LO:MO:mod=si-	!	!	!	!	!	!	!	!
4r	.	.	(8g/	.	(8b-/	.	.	.	.	.	4b-\	Si-	4gg\	si-	.	.	.	.	.	.
.	.	.	8e-/)	.	8g/)	.	.	.	.	.	.	.	.	.	.	.	.	.	.	.
4r	.	.	(8g/	.	(8b-/	.	.	.	.	.	8a-X\	-gni-	8ff\	-gni-	.	.	8a-/L	.	8ff\L	.
.	.	.	8e-/J)	.	8g/J)	.	.	.	.	.	8g\	-fer	8ee-\	-fer	.	.	8g/J	.	8ee-\J	.
=39	=39	=39	=39	=39	=39	=39	=39	=39	=39	=39	=39	=39	=39	=39	=39	=39	=39	=39	=39	=39
!	!	!	!	!	!	!	!	!	!	!	!	!LO:MO:mod=san-	!	!LO:MO:mod=san-	!	!	!	!	!	!
4B-\	.	.	(8d/L	.	(8f/L	.	.	.	.	.	8f\L	San-	8dd\L	San-	.	.	8f/L	.	8dd\L	.
.	.	.	8e-/J)	.	8e-/J)	.	.	.	.	.	8g\J	.	8ee-\J	.	.	.	8g/J	.	8ee-\J	.
!	!	!	!	!	!	!	!	!	!	!	!	!LO:MO:mod=-ctus,	!	!LO:MO:mod=-ctus,	!	!	!	!	!	!
4r	.	.	8d/L|	.	8f/L|	.	.	.	.	.	4a-\	-ctus	4ff\	-ctus	.	.	4a-/	.	4ff\	.
.	.	.	8f/|	.	8a-/|	.	.	.	.	.	.	.	.	.	.	.	.	.	.	.
!	!	!	!	!	!LO:SIC:s=(8g/:v	!	!	!	!	!	!	!	!	!	!	!	!	!	!	!
4r	.	.	(8e-/	.	8g/|	.	.	.	.	.	4r	.	4r	.	.	.	4r	.	4r	.
!	!	!	!	!	!LO:SIC:s=8f/J):v	!	!	!	!	!	!	!	!	!	!	!	!	!	!	!
.	.	.	8d/J)	.	8f/J|	.	.	.	.	.	.	.	.	.	.	.	.	.	.	.
=40	=40	=40	=40	=40	=40	=40	=40	=40	=40	=40	=40	=40	=40	=40	=40	=40	=40	=40	=40	=40
*	*	*	*	*	*	*	*	*	*	*	*	*ij	*	*ij	*	*	*	*	*	*
!	!	!	!	!	!	!	!	!	!	!	!	!LO:MO:mod=san-	!	!LO:MO:mod=san-	!	!	!	!	!	!
4BB-/	.	.	(8f/L	.	(8a-/L	.	.	.	.	.	2a-\	San-	2ff\	San-	.	.	2a-/	.	2ff\	.
.	.	.	8d/)	.	8f/)	.	.	.	.	.	.	.	.	.	.	.	.	.	.	.
4r	.	.	(8f/	.	(8a-/	.	.	.	.	.	.	.	.	.	.	.	.	.	.	.
.	.	.	8d/)	.	8f/)	.	.	.	.	.	.	.	.	.	.	.	.	.	.	.
4r	.	.	(8f/	.	(8a-/	.	.	.	.	.	8g\L	-ctus	8ee-\L	-ctus	.	.	8g/L	.	8ee-\L	.
*	*	*	*	*	*	*	*	*	*	*	*	*Xij	*	*Xij	*	*	*	*	*	*
.	.	.	8d/J)	.	8f/J)	.	.	.	.	.	8f\J	.	8dd\J	.	.	.	8f/J	.	8dd\J	.
=41	=41	=41	=41	=41	=41	=41	=41	=41	=41	=41	=41	=41	=41	=41	=41	=41	=41	=41	=41	=41
4E-\	.	.	(8e-/L	.	(8g/L	.	.	.	.	.	8g\	Mi-	8ee-\	Mi-	.	.	8g/L	.	8ee-\L	.
.	.	.	8f/J)	.	8a-/J)	.	.	.	.	.	8a-\	-cha-	8ff\	-cha-	.	.	8a-/J	.	8ff\J	.
!	!	!	!	!	!	!	!	!	!	!	!	!	!LO:LB:g=original	!	!	!	!	!	!	!
!	!	!	!	!	!	!	!	!	!	!	!	!LO:MO:mod=-el	!	!	!	!	!	!	!	!
4r	.	.	8e-/L|	.	8g/L|	.	.	.	.	.	4b-\	-ael	4gg\	-el	.	.	4b-\	.	4gg\	.
.	.	.	8g/|	.	8b-/|	.	.	.	.	.	.	.	.	.	.	.	.	.	.	.
!	!	!	!	!	!LO:SIC:s=(8a-/:v	!	!	!	!	!	!	!	!	!	!	!	!	!	!	!
4r	.	.	(8f/	.	8a-/|	.	.	.	.	.	4r	.	4r	.	.	.	4r	.	4r	.
!	!	!	!	!	!LO:SIC:s=8g/J):v	!	!	!	!	!	!	!	!	!	!	!	!	!	!	!
.	.	.	8e-/J)	.	8g/J|	.	.	.	.	.	.	.	.	.	.	.	.	.	.	.
=42	=42	=42	=42	=42	=42	=42	=42	=42	=42	=42	=42	=42	=42	=42	=42	=42	=42	=42	=42	=42
4E-\	.	.	(8g/L	.	(8b-/L	.	0.r	.	0.r	.	2b-\	re-	2gg\	re-	0.r	0.r	2b-\	.	2gg\	.
.	.	.	8e-/)	.	8g/)	.	.	.	.	.	.	.	.	.	.	.	.	.	.	.
4r	.	.	(8g/	.	(8b-/	.	.	.	.	.	.	.	.	.	.	.	.	.	.	.
.	.	.	8e-/)	.	8g/)	.	.	.	.	.	.	.	.	.	.	.	.	.	.	.
!	!	!	!	!	!	!	!	!	!	!	!	!LO:MO:mod=-prae-	!	!LO:MO:mod=-prae-	!	!	!	!	!	!
4r	.	.	(8g/	.	(8b-/	.	.	.	.	.	8a-\L	-pre-	8ff\L	-pre-	.	.	8a-\L	.	8ff\L	.
.	.	.	8e-/J)	.	8g/J)	.	.	.	.	.	8b-\J	.	8gg\J	.	.	.	8b-\J	.	8gg\J	.
!	!	!	!LO:LB:g=original	!	!LO:LB:g=original	!	!	!	!	!	!LO:LB:g=original	!	!	!	!	!	!LO:LB:g=original	!	!	!
=43	=43	=43	=43	=43	=43	=43	=43	=43	=43	=43	=43	=43	=43	=43	=43	=43	=43	=43	=43	=43
4A-\	6	.	(8a-/L	.	(8cc/L	.	.	.	.	.	2cc\	-ſen-	2aa-\	-sen-	.	.	2cc\	.	2aa-\	.
.	.	.	8f/)	.	8a-/)	.	.	.	.	.	.	.	.	.	.	.	.	.	.	.
4r	.	.	(8a-/	.	(8cc/	.	.	.	.	.	.	.	.	.	.	.	.	.	.	.
.	.	.	8f/)	.	8a-/)	.	.	.	.	.	.	.	.	.	.	.	.	.	.	.
4r	.	.	(8a-/	.	(8cc/	.	.	.	.	.	4a-\	-tet	4ff\	-tet	.	.	4a-\	.	4ff\	.
.	.	.	8f/J)	.	8a-/J)	.	.	.	.	.	.	.	.	.	.	.	.	.	.	.
!	!	!	!	!	!	!	!	!	!	!	!	!	!	!	!	!	!	!	!LO:LB:g=original	!
=44	=44	=44	=44	=44	=44	=44	=44	=44	=44	=44	=44	=44	=44	=44	=44	=44	=44	=44	=44	=44
4B-\	3_	.	(8d/L	.	(8f/L	.	.	.	.	.	4.f\	e-	4.dd\	e-	.	.	(4.f/	.	(4.dd\	.
.	.	.	8B-/)	.	8d/)	.	.	.	.	.	.	.	.	.	.	.	.	.	.	.
4A-\	.	.	(8d/	.	(8f/	.	.	.	.	.	.	.	.	.	.	.	.	.	.	.
.	.	.	8B-/)	.	8d/)	.	.	.	.	.	16e-\LL	-as	16cc\LL	-as	.	.	16e-/LL	.	16cc\LL	.
.	.	.	.	.	.	.	.	.	.	.	16f\JJ	.	16dd\JJ	.	.	.	16f/JJ)	.	16dd\JJ)	.
!	!	!	!	!	!	!	!	!	!	!	!	!	!	!	!	!	!	!	!LO:SIC:s=4ee-\|:v	!
4G\	6	.	(8e-/	.	(8g/	.	.	.	.	.	4g\	in	4ee-\	in	.	.	4g/|	.	4ee-\	.
.	.	.	8B-/J)	.	8e-/J)	.	.	.	.	.	.	.	.	.	.	.	.	.	.	.
=45	=45	=45	=45	=45	=45	=45	=45	=45	=45	=45	=45	=45	=45	=45	=45	=45	=45	=45	=45	=45
4A-\	6	.	(8c/L	.	(8f/L	.	.	.	.	.	8cc\	lu-	8ff\	lu-	.	.	4a-/	.	4ff\	.
.	.	.	8f/)	.	8a-/)	.	.	.	.	.	8a-\	-cem	8ff\	-cem	.	.	.	.	.	.
!	!	!	!	!	!	!	!	!	!	!	!	!LO:MO:mod=san-	!	!LO:MO:mod=san-	!	!	!	!	!	!
4B-\	4	.	(8g/	.	(8g/	.	.	.	.	.	4g\	San-	4ee-\	San-	.	.	4g/	.	4ee-\	.
.	.	.	8e-/)	.	8e-/)	.	.	.	.	.	.	.	.	.	.	.	.	.	.	.
4BB-/	3	.	(8f/	.	(8f/	.	.	.	.	.	4f\	.	4dd\	.	.	.	4f/	.	4dd\	.
.	.	.	8d/J)	.	8d/J)	.	.	.	.	.	.	.	.	.	.	.	.	.	.	.
=46	=46	=46	=46	=46	=46	=46	=46	=46	=46	=46	=46	=46	=46	=46	=46	=46	=46	=46	=46	=46
!	!	!	!	!LO:MO:mod=f	!	!	!	!	!	!	!	!	!	!	!	!	!	!	!	!
!	!	!LO:DY:a:t=for	!	!LO:DY:t=for	!	!LO:DY:a:t=for	!	!	!	!	!	!	!	!	!	!	!	!	!	!
!	!	!	!	!	!	!	!	!	!	!	!	!LO:MO:mod=-ctam,	!	!LO:MO:mod=-ctam,	!	!	!	!	!	!
8.E-\L|	.	f	(8.e-/L	f	(8.e-/L	f	0.r	.	0.r	.	4g\	-ctam	4ee-\	-ctam	1.r	1.r	4g/	.	4ee-\	.
16D\Jk|	.	.	16d/Jk)	.	16d/Jk)	.	.	.	.	.	.	.	.	.	.	.	.	.	.	.
8E-\L|	.	.	8e-/L|	.	8e-/L|	.	.	.	.	.	4r	.	4r	.	.	.	4r	.	4r	.
8E-\|	.	.	8e-/|	.	8e-/|	.	.	.	.	.	.	.	.	.	.	.	.	.	.	.
8F\|	.	.	8f/|	.	8f/|	.	.	.	.	.	4r	.	4r	.	.	.	4r	.	4r	.
8G\J|	.	.	8g/J|	.	8g/J|	.	.	.	.	.	.	.	.	.	.	.	.	.	.	.
=47	=47	=47	=47	=47	=47	=47	=47	=47	=47	=47	=47	=47	=47	=47	=47	=47	=47	=47	=47	=47
8.A-\L|	.	.	(8.a-/L	.	(8.a-/L	.	.	.	.	.	1.r	.	1.r	.	.	.	2.r	.	2.r	.
16F\Jk|	.	.	16f/Jk)	.	16f/Jk)	.	.	.	.	.	.	.	.	.	.	.	.	.	.	.
8D\L|	.	.	8d/L|	.	8d/L|	.	.	.	.	.	.	.	.	.	.	.	.	.	.	.
8D\|	.	.	8d/|	.	8d/|	.	.	.	.	.	.	.	.	.	.	.	.	.	.	.
8E-\|	.	.	8e-/|	.	8e-/|	.	.	.	.	.	.	.	.	.	.	.	.	.	.	.
8F\J|	.	.	8f/J|	.	8f/J|	.	.	.	.	.	.	.	.	.	.	.	.	.	.	.
!	!	!	!	!	!	!	!	!	!	!	!	!	!	!	!LO:LB:g=original	!	!	!	!	!
=48	=48	=48	=48	=48	=48	=48	=48	=48	=48	=48	=48	=48	=48	=48	=48	=48	=48	=48	=48	=48
8.G\L|	.	.	(8.g/L	.	(8.g/L	.	.	.	.	.	.	.	.	.	4r	4r	4r	.	4r	.
16E-\Jk|	.	.	16e-/Jk)	.	16e-/Jk)	.	.	.	.	.	.	.	.	.	.	.	.	.	.	.
!LO:LB:g=original	!	!	!	!	!	!	!	!	!	!	!	!	!	!	!	!	!	!	!	!
!	!	!	!	!	!	!	!	!	!	!	!	!	!	!	!	!	!	!	!	!LO:DY:a:t=f.
!	!	!	!	!	!	!	!	!	!	!	!	!	!	!	!	!	!	!	!	!LO:MO:mod=!null:null
8C\L|	.	.	8c/L|	.	8c/L|	.	.	.	.	.	.	.	.	.	8r	8r	8r	.	8r	f
!	!	!	!	!	!	!	!	!	!	!	!	!	!	!	!	!	!	!LO:DY:a:t=f.	!	!
!	!	!	!	!	!	!	!	!	!	!	!	!	!	!	!	!	!	!	!	!LO:DY:t= :mod=%s
!	!	!	!	!	!	!	!	!	!	!	!	!	!	!	!	!	!	!	!	!LO:MO:mod=!LO&colon;DY&colon;ed=
!	!	!	!	!	!	!	!	!	!	!	!	!	!	!	!	!	!	!	!	!null
8C\	.	.	8c/|	.	8c/|	.	.	.	.	.	.	.	.	.	8G/L	8g\L	8cc\L	f	8ee-\L	f
!	!	!	!	!	!LO:SIC:s=(8d/:v	!	!	!	!	!	!	!	!	!	!	!	!	!	!	!
8D\	6\	.	(8Bn/	.	8d/|	.	.	.	.	.	.	.	.	.	8G/	8g\	8bX\	.	8ff\	.
!	!	!	!	!	!LO:SIC:s=8e-/J):v	!	!	!	!	!	!	!	!	!	!	!	!	!	!	!
8E-\J	6	.	8c/J)	.	8e-/J|	.	.	.	.	.	.	.	.	.	8G/J	8g\J	8cc\J	.	8gg\J	.
!	!	!	!	!	!	!	!	!	!	!	!	!	!	!	!	!LO:LB:g=original	!	!	!	!
=49	=49	=49	=49	=49	=49	=49	=49	=49	=49	=49	=49	=49	=49	=49	=49	=49	=49	=49	=49	=49
4F\	6	.	8d/L	.	8f/L	.	.	.	.	.	2.r	.	2.r	.	4f\	4a-\	4dd\	.	4ff\	.
.	.	.	16f/L	.	16a-/L	.	.	.	.	.	.	.	.	.	.	.	.	.	.	.
.	.	.	16d/JJ	.	16f/JJ	.	.	.	.	.	.	.	.	.	.	.	.	.	.	.
!	!	!	!	!	!LO:LB:g=original	!	!	!	!	!	!	!	!	!	!	!	!	!	!	!
4G\	4	.	4c/	.	4e-/	.	.	.	.	.	.	.	.	.	4g\	4g\	4cc\	.	4ee-\	.
4GG/	3	.	4Bn/	.	4d/	.	.	.	.	.	.	.	.	.	4G/	4g\	4bX\	.	4dd\	.
!	!	!	!LO:LB:g=original	!	!	!	!	!	!LO:LB:g=original	!	!	!	!	!	!	!	!	!	!	!
=50	=50	=50	=50	=50	=50	=50	=50	=50	=50	=50	=50	=50	=50	=50	=50	=50	=50	=50	=50	=50
!LO:TX:a:i:t=Tutti	!	!	!	!LO:DY:a:t=for	!	!	!	!	!	!	!	!	!	!	!	!	!	!	!	!
!	!	!	!	!	!	!	!	!LO:MO:mod=quam	!	!LO:MO:mod=quam	!	!	!	!LO:MO:mod=quam	!	!	!	!	!	!
!	!	!	!	!	!	!LO:DY:t= :mod=%s	!	!	!	!	!	!	!	!	!	!	!	!	!	!
!	!	!	!	!	!	!LO:MO:mod=!LO&colon;DY&colon;ed=brack	!	!	!	!	!	!	!	!	!	!	!	!	!	!
!	!	!	!	!	!	!null	!	!	!	!	!	!	!	!	!	!	!	!	!	!
4C/	.	.	8c/L	f	8e-/L	f	4C/	qua(m)	4G/	qua(m)	4e-\	quam	4cc\	qua(m)	4G/	4g\	4cc\	.	4ee-\	.
.	.	.	16e-/L	.	16g/L	.	.	.	.	.	.	.	.	.	.	.	.	.	.	.
.	.	.	16d/JJ	.	16f/JJ	.	.	.	.	.	.	.	.	.	.	.	.	.	.	.
4E-\	.	.	8c/L	.	8e-/L	.	4C/	o-	4G/	o-	4e-\	o-	4cc\	o-	4G/	4g\	4cc\	.	4ee-\	.
.	.	.	8c/J	.	8e-/J	.	.	.	.	.	.	.	.	.	.	.	.	.	.	.
4C\	.	.	8c/L	.	8e-/L	.	4C/	-lim	4G/	-lim	4e-\	-lim	4cc\	-lim	4G/	4g\	4cc\	.	4ee-\	.
.	.	.	16Bn/L	.	16d/L	.	.	.	.	.	.	.	.	.	.	.	.	.	.	.
.	.	.	16c/JJ	.	16e-/JJ	.	.	.	.	.	.	.	.	.	.	.	.	.	.	.
!	!	!	!	!	!	!	!	!	!	!	!	!	!LO:LB:g=original	!	!	!	!LO:LB:g=original	!	!	!
=51	=51	=51	=51	=51	=51	=51	=51	=51	=51	=51	=51	=51	=51	=51	=51	=51	=51	=51	=51	=51
!	!	!	!	!	!	!	!	!LO:MO:mod=A-	!	!	!	!LO:MO:mod=A-	!	!	!	!	!	!	!	!
!	!	!	!LO:SIC:s=(8d/L:v	!	!	!	!	!	!	!	!	!	!	!	!	!	!	!	!	!
4G\	n	.	8d/L	.	(8f/L	.	8G\	a-	8G/	A-	8d\	a-	8bn\	A-	4G/	4g\	4bX\	.	4ee-\	.
!	!	!	!LO:SIC:s=8Bn/J):v	!	!	!	!	!	!	!	!	!	!	!	!	!	!	!	!	!
.	.	.	8Bn/J	.	8d/J)	.	8G\	-bra-	8G/	-bra-	8d\	-bra-	8b\	-bra-	.	.	.	.	.	.
4GG/	.	.	8r	.	8r	.	4G\	-hae	4G/	-hae	4d\	-hae	4b\	-hae	4G/	4g\	4b\	.	4dd\	.
.	.	.	8B/L	.	8d/L	.	.	.	.	.	.	.	.	.	.	.	.	.	.	.
4r	.	.	8c/	.	8e-/	.	4r	.	4r	.	4r	.	4r	.	4r	4r	4r	.	4r	.
.	.	.	8d/J	.	8f/J	.	.	.	.	.	.	.	.	.	.	.	.	.	.	.
=52	=52	=52	=52	=52	=52	=52	=52	=52	=52	=52	=52	=52	=52	=52	=52	=52	=52	=52	=52	=52
*	*	*	*	*	*	*	*	*	*	*ij	*	*	*	*	*	*	*	*	*	*
4C/	.	.	8c/L	.	8e-/L	.	2C/	pro-	4G/	quam	2e-\	pro-	2cc\	pro-	4G/	4g\	4cc\	.	4ee-\	.
.	.	.	16e-/L	.	16g/L	.	.	.	.	.	.	.	.	.	.	.	.	.	.	.
.	.	.	16d/JJ	.	16f/JJ	.	.	.	.	.	.	.	.	.	.	.	.	.	.	.
4E-\	.	.	8c/L	.	8e-/L	.	.	.	4G/	o-	.	.	.	.	4G/	4g\	4cc\	.	4ee-\	.
.	.	.	8c/J	.	8e-/J	.	.	.	.	.	.	.	.	.	.	.	.	.	.	.
!	!	!	!	!	!	!	!	!LO:MO:mod=-mi-	!	!	!	!LO:MO:mod=-mi-	!	!LO:MO:mod=-mi-	!	!	!	!	!	!
4C/	.	.	8c/L	.	8e-/L	.	4C/	-miſ-	4G/	-lim	4e-\	-miſ-	4cc\	-miſ-	4G/	4g\	4cc\	.	4ee-\	.
.	.	.	16Bn/L	.	16d/L	.	.	.	.	.	.	.	.	.	.	.	.	.	.	.
.	.	.	16c/JJ	.	16e-/JJ	.	.	.	.	.	.	.	.	.	.	.	.	.	.	.
!	!	!	!	!	!	!	!	!	!	!	!LO:LB:g=original	!	!	!	!	!	!	!	!LO:LB:g=original	!
=53	=53	=53	=53	=53	=53	=53	=53	=53	=53	=53	=53	=53	=53	=53	=53	=53	=53	=53	=53	=53
4G\	n_	.	8d/L	.	8f/L	.	4G\	-si-	8G/	A-	4d\	-si-	4bn\	-si-	4G/	4g\	4bX\	.	4dd\	.
.	.	.	8Bn/J	.	8d/J	.	.	.	8G/	-bra-	.	.	.	.	.	.	.	.	.	.
4GG/	.	.	8r	.	8r	.	4G\	-sti	4G/	-hae	4d\	-sti	4b\	-sti	4G/	4g\	4b\	.	4dd\	.
*	*	*	*	*	*	*	*	*	*	*Xij	*	*	*	*	*	*	*	*	*	*
.	X	.	8B/L	.	8d/L	.	.	.	.	.	.	.	.	.	.	.	.	.	.	.
4r	.	.	8c/	.	8e-/	.	4r	.	4r	.	4r	.	4r	.	4r	4r	4r	.	4r	.
.	.	.	8d/J	.	8f/J	.	.	.	.	.	.	.	.	.	.	.	.	.	.	.
=54	=54	=54	=54	=54	=54	=54	=54	=54	=54	=54	=54	=54	=54	=54	=54	=54	=54	=54	=54	=54
4C/	3_	.	8c/L	.	8e-/L	.	2.c\	et	2.G/	et	2.e-\	et	2.cc\	et	4E-/	4e-\	2.cc\	.	2.ee-\	.
!	!	!	!LO:SIC:s=(16e-/L:v	!	!	!	!	!	!	!	!	!	!	!	!	!	!	!	!	!
.	.	.	16e-/L	.	(16g/L	.	.	.	.	.	.	.	.	.	.	.	.	.	.	.
!	!	!	!LO:SIC:s=16d/JJ):v	!	!	!	!	!	!	!	!	!	!	!	!	!	!	!	!	!
.	.	.	16d/JJ	.	16f/JJ)	.	.	.	.	.	.	.	.	.	.	.	.	.	.	.
4c\	.	.	8c/L	.	8e-/L	.	.	.	.	.	.	.	.	.	4E-/	4e-\	.	.	.	.
.	.	.	8c/	.	8e-/	.	.	.	.	.	.	.	.	.	.	.	.	.	.	.
4c\	.	.	8c/	.	8e-/	.	.	.	.	.	.	.	.	.	4r	4r	.	.	.	.
.	.	.	8c/J	.	8e-/J	.	.	.	.	.	.	.	.	.	.	.	.	.	.	.
!	!	!	!	!	!LO:LB:g=original	!	!	!	!	!	!	!	!	!	!	!	!	!	!	!
=55	=55	=55	=55	=55	=55	=55	=55	=55	=55	=55	=55	=55	=55	=55	=55	=55	=55	=55	=55	=55
!	!	!	!	!	!	!	!	!LO:MO:mod=se-	!	!LO:MO:mod=se-	!	!	!	!LO:MO:mod=se-	!	!	!	!	!	!
4A-\	.	.	8c/L	.	8e-/L	.	4.A-\	Se-	4.A-/	Se-	4.e-\	ſe-	4.cc\	Se-	4E-/	4e-\	2.cc\	.	2.ee-\	.
!	!	!	!LO:SIC:s=(16e-/L:v	!	!	!	!	!	!	!	!	!	!	!	!	!	!	!	!	!
.	.	.	16e-/L	.	(16c/L	.	.	.	.	.	.	.	.	.	.	.	.	.	.	.
!	!	!	!LO:SIC:s=16d/JJ):v	!	!	!	!	!	!	!	!	!	!	!	!	!	!	!	!	!
.	.	.	16d/JJ	.	16d/JJ)	.	.	.	.	.	.	.	.	.	.	.	.	.	.	.
4A-\	.	.	8c/L	.	8e-/L	.	.	.	.	.	.	.	.	.	4E-/	4e-\	.	.	.	.
.	.	.	8c/	.	8e-/	.	8A-\	-mi-	8A-/	-mi-	8e-\	-mi-	8cc\	-mi-	.	.	.	.	.	.
4A-\	.	.	8c/	.	8e-/	.	4A-\	-ni	4A-/	-ni	4e-\	-ni	4cc\	-ni	4r	4r	.	.	.	.
.	X	.	8c/J	.	8e-/J	.	.	.	.	.	.	.	.	.	.	.	.	.	.	.
!	!	!	!LO:LB:g=original	!	!	!	!	!	!	!	!	!	!	!	!	!	!	!	!	!
=56	=56	=56	=56	=56	=56	=56	=56	=56	=56	=56	=56	=56	=56	=56	=56	=56	=56	=56	=56	=56
4F\	6	.	8d/L	.	8f/L	.	4F\	e-	4A-/	e-	4f\	e-	4dd\	e-	4f\	4a-\	4dd\	.	4ff\	.
.	.	.	16f/L	.	16a-/L	.	.	.	.	.	.	.	.	.	.	.	.	.	.	.
.	.	.	16d/JJ	.	16f/JJ	.	.	.	.	.	.	.	.	.	.	.	.	.	.	.
4G\	4	.	4c/	.	4e-/	.	4G\	.	2G/	.	4e-\	.	4cc\	.	4g\	4g\	4cc\	.	4ee-\	.
4GG/	3	.	4Bn/	.	4d/	.	4GG/	.	.	.	4d\	.	4bn\	.	4G/	4g\	4bX\	.	4dd\	.
=57	=57	=57	=57	=57	=57	=57	=57	=57	=57	=57	=57	=57	=57	=57	=57	=57	=57	=57	=57	=57
!	!	!	!	!	!	!	!	!LO:MO:mod=-ius.	!	!LO:MO:mod=-ius.	!	!LO:MO:mod=-ius.	!	!LO:MO:mod=-ius.	!	!	!	!	!	!
4C/	.	.	8c/L	.	8e-/L	.	4C/	-ius	4G/	-ius	4e-\	-ius	4cc\	-ius	4G/	4g\	4cc\	.	4ee-\	.
.	.	.	(8e-/	.	(8g/	.	.	.	.	.	.	.	.	.	.	.	.	.	.	.
4r	.	.	8d/	.	8f/	.	4r	.	4r	.	4r	.	4r	.	4G/	4r	4r	.	4r	.
.	.	.	8c/	.	8e-/	.	.	.	.	.	.	.	.	.	.	.	.	.	.	.
!	!	!	!	!	!	!	!	!	!LO:MO:mod=!null:null	!	!	!	!	!	!	!	!	!	!	!
!	!	!	!	!	!	!	!	!	!LO:TX:b:i:t=Verte	!	!	!	!	!	!	!	!	!	!	!
4r	.	.	8Bn/)	.	8d/)	.	4r	.	4r	.	4r	.	4r	.	4r	4r	4r	.	4r	.
.	.	.	8c/J	.	8e-/J	.	.	.	.	.	.	.	.	.	.	.	.	.	.	.
!LO:PB:g=original	!	!	!	!	!	!	!LO:LB:g=original	!	!LO:PB:g=original	!	!	!	!	!	!LO:LB:g=original	!	!	!	!	!
=58	=58	=58	=58	=58	=58	=58	=58	=58	=58	=58	=58	=58	=58	=58	=58	=58	=58	=58	=58	=58
!	!	!	!	!	!	!	!	!	!	!	!	!	!LO:MO:mod=!null:null	!	!	!	!	!	!	!
!	!	!	!	!	!	!	!	!	!	!	!	!	!	!	!	!	!	!	!LO:MO:mod=!LO&colon;TX&colon;a&colon;i&colon;t=Solo	!
!LO:TX:a:i:t=Solo	!	!LO:DY:a:t=p.	!	!	!	!LO:DY:a:t=p.	!	!	!LO:TX:a:i:t=Solo	!	!LO:TX:a:i:t=Solo	!	!LO:TX:a:i:t=alt solo	!	!	!	!LO:TX:a:i:t=Solo	!	!LO:TX:a:i:rj:t=Solo	!
!	!	!	!	!	!	!	!	!	!	!LO:MO:mod=Ho-	!	!LO:MO:mod=Ho-	!	!	!	!	!	!	!	!
!	!	!	!	!LO:DY:t= :mod=%s	!	!	!	!	!	!	!	!	!	!	!	!	!	!	!	!
!	!	!	!	!LO:MO:mod=!LO&colon;DY&colon;ed=	!	!	!	!	!	!	!	!	!	!	!	!	!	!	!	!
!	!	!	!	!null	!	!	!	!	!	!	!	!	!	!	!	!	!	!	!	!
8C/L	.	p	2c/	p	2e-/	p	0.r	.	4.c\	hos-	4.e-\	hoſ-	0.r	.	0.r	0.r	2cc\	.	2ee-\	.
8C/	.	.	.	.	.	.	.	.	.	.	.	.	.	.	.	.	.	.	.	.
!	!	!	!	!LO:DY:a:t=p.	!	!	!	!	!	!	!	!	!	!	!	!	!	!	!	!
!	!	!	!	!LO:MO:mod=!null:null 	!	!	!	!	!	!	!	!	!	!	!	!	!	!	!	!
8C/	.	.	.	p	.	.	.	.	.	.	.	.	.	.	.	.	.	.	.	.
!	!	!	!	!	!	!	!	!	!	!LO:MO:mod=-sti-	!	!	!	!	!	!	!	!	!	!
8C/	.	.	.	.	.	.	.	.	8c\	-ti-	8e-\	-sti-	.	.	.	.	.	.	.	.
8C/	4 2	.	4d/	.	4f/	.	.	.	4d\	-as	4f\	-as	.	.	.	.	4dd\	.	4ff\	.
8C/J	3	.	.	.	.	.	.	.	.	.	.	.	.	.	.	.	.	.	.	.
=59	=59	=59	=59	=59	=59	=59	=59	=59	=59	=59	=59	=59	=59	=59	=59	=59	=59	=59	=59	=59
8C/L	5 3	.	4e-/	.	4g/	.	.	.	4e-\	et	4g\	et	.	.	.	.	4ee-\	.	4gg\	.
8C/	.	.	.	.	.	.	.	.	.	.	.	.	.	.	.	.	.	.	.	.
8C/	6 4	.	4f/	.	4a-/	.	.	.	4f\	pre-	4a-\	pre-	.	.	.	.	4ff\	.	4aa-\	.
8C/	5 3	.	.	.	.	.	.	.	.	.	.	.	.	.	.	.	.	.	.	.
8C/	.	.	4e-/	.	4g/	.	.	.	4e-\	-ces	4g\	-ces	.	.	.	.	4ee-\	.	4gg\	.
8C/J	.	.	.	.	.	.	.	.	.	.	.	.	.	.	.	.	.	.	.	.
!	!	!	!	!	!	!	!	!	!	!	!	!	!	!	!	!	!LO:LB:g=original	!	!	!
=60	=60	=60	=60	=60	=60	=60	=60	=60	=60	=60	=60	=60	=60	=60	=60	=60	=60	=60	=60	=60
!LO:TX:t=P:problem=mixed beam	!	!	!	!	!	!	!	!	!	!	!	!	!	!	!	!	!	!	!	!
8F\L	6	.	4d/	.	4f/	.	.	.	(4d\	ti-	(4f\	ti-	.	.	.	.	4dd\	.	4ff\	.
8F\	.	.	.	.	.	.	.	.	.	.	.	.	.	.	.	.	.	.	.	.
8G\	4_	.	4c/	.	4e-/	.	.	.	4c\)	.	4e-\)	.	.	.	.	.	4cc\	.	4ee-\	.
8G\	.	.	.	.	.	.	.	.	.	.	.	.	.	.	.	.	.	.	.	.
!	!	!	!	!	!	!	!	!	!	!LO:MO:mod=-bi,	!	!LO:MO:mod=-bi,	!	!	!	!	!	!	!	!
8GG/	n	.	4Bn/	.	4d/	.	.	.	4Bn\	-bi	4d\	-bi	.	.	.	.	4bX\	.	4dd\	.
8GG/J	.	.	.	.	.	.	.	.	.	.	.	.	.	.	.	.	.	.	.	.
=61	=61	=61	=61	=61	=61	=61	=61	=61	=61	=61	=61	=61	=61	=61	=61	=61	=61	=61	=61	=61
!	!	!	!	!	!	!	!	!	!	!	!	!	!	!	!	!	!LO:SIC:s=(8.cc\L:v	!	!	!
4C/	.	.	(8.c/L	.	(8.e-/L	.	.	.	8.c\	Do-	8.e-\	Do-	.	.	.	.	8.cc\L	.	(8.ee-\L	.
!	!	!	!	!	!	!	!	!	!	!	!	!	!	!	!	!	!LO:SIC:s=16dd\Jk):v	!	!	!
.	.	.	16d/Jk)	.	16f/Jk)	.	.	.	16d\	-mi-	16f\	-mi-	.	.	.	.	16dd\Jk	.	16ff\Jk)	.
!	!	!	!	!	!	!	!	!	!	!	!LO:LB:g=original	!	!	!	!	!	!	!	!	!
!	!	!	!	!	!	!	!	!	!	!LO:MO:mod=-ne,	!	!LO:MO:mod=-ne,	!	!	!	!	!	!	!	!
4C/	.	.	8e-/L|	.	8g/L|	.	.	.	4e-\	-ne	4g\	-ne	.	.	.	.	4ee-\	.	4gg\	.
.	.	.	8e-/|	.	8g/|	.	.	.	.	.	.	.	.	.	.	.	.	.	.	.
4r	.	.	(8d/	.	(8f/	.	.	.	4r	.	4r	.	.	.	.	.	4r	.	4r	.
.	.	.	8c/J)	.	8e-/J)	.	.	.	.	.	.	.	.	.	.	.	.	.	.	.
!	!	!	!	!	!LO:LB:g=original	!	!	!	!	!	!	!	!	!	!	!	!	!	!	!
=62	=62	=62	=62	=62	=62	=62	=62	=62	=62	=62	=62	=62	=62	=62	=62	=62	=62	=62	=62	=62
!LO:TX:a:i:t=Tutti	!	!	!	!LO:DY:a:t=for	!	!LO:DY:a:t=for	!	!	!	!	!	!	!	!	!	!	!	!LO:DY:a	!	!LO:DY:a:rj:t=for
!	!	!	!	!	!	!	!	!LO:MO:mod=lau-	!	!	!	!LO:MO:mod=lau-	!	!	!	!	!	!	!	!
8C\L	.	.	16f/LL	f	16a-/LL	f	4c\	Lau-	4G/	lau-	4g\	Lau-	4ee-\	lau-	2.r	2.r	4ee-\	f	4gg\	f
.	.	.	16e-/	.	16g/	.	.	.	.	.	.	.	.	.	.	.	.	.	.	.
8C\	.	.	16d/	.	16f/	.	.	.	.	.	.	.	.	.	.	.	.	.	.	.
.	.	.	16e-/JJ	.	16g/JJ	.	.	.	.	.	.	.	.	.	.	.	.	.	.	.
8F\	6	.	4d/	.	4f/	.	4F\	-dis	4A-/	-dis	4f\	-dis	4dd\	-dis	.	.	4dd\	.	4ff\	.
8F\	.	.	.	.	.	.	.	.	.	.	.	.	.	.	.	.	.	.	.	.
8F#X\	5	.	4c/	.	4e-/	.	4F#X\	of-	4A-/	of-	4e-\	of-	4cc\	of-	.	.	4cc\	.	4ee-\	.
8F#\J	.	.	.	.	.	.	.	.	.	.	.	.	.	.	.	.	.	.	.	.
!	!	!	!	!	!	!	!	!	!	!	!	!	!LO:LB:g=original	!	!	!	!	!	!LO:LB:g=original	!
=63	=63	=63	=63	=63	=63	=63	=63	=63	=63	=63	=63	=63	=63	=63	=63	=63	=63	=63	=63	=63
4G\	4	.	8c/L	.	8e-/L	.	8G\	-fe-	8G/	-fe-	8e-\	-fe-	8cc\	-fe-	4G/	4g\	4cc\	.	4ee-\	.
.	.	.	16Bn/L	.	16d/L	.	8G\	-ri-	8G/	-ri-	8e-\	-ri-	8cc\	-ri-	.	.	.	.	.	.
.	.	.	16c/JJ	.	16e-/JJ	.	.	.	.	.	.	.	.	.	.	.	.	.	.	.
!	!	!	!	!	!	!	!	!LO:MO:mod=-mus,	!	!LO:MO:mod=-mus,	!	!LO:MO:mod=-mus,	!	!LO:MO:mod=-mus,	!	!	!	!	!	!
!	!	!	!	!	!LO:SIC:s=8d/L|:v	!	!	!	!	!	!	!	!	!	!	!	!	!	!	!
4GG/	3	.	8B/L|	.	8d/L	.	4G\	-mus	4G/	-mus	4d\	-mus	4bn\	-mus	4G/	4g\	4bX\	.	4dd\	.
.	.	.	8B/|	.	8d/|	.	.	.	.	.	.	.	.	.	.	.	.	.	.	.
4r	.	.	8c/|	.	8e-/|	.	4r	.	4r	.	4r	.	4r	.	4r	4r	4r	.	4r	.
.	.	.	8An/J|	.	8f#X/J|	.	.	.	.	.	.	.	.	.	.	.	.	.	.	.
!	!	!	!LO:PB:g=original	!	!	!	!	!	!	!	!	!	!	!	!	!	!	!	!	!
=64	=64	=64	=64	=64	=64	=64	=64	=64	=64	=64	=64	=64	=64	=64	=64	=64	=64	=64	=64	=64
4GG/	n_	.	8Bn/L	.	8g/L	.	2G\	qua-	2G/	qua-	4d\	tu	4bn\	tu	2.G/	2.g\	2.bX\	.	2.dd\	.
.	.	.	16G/L	.	16Bn/L	.	.	.	.	.	.	.	.	.	.	.	.	.	.	.
!	!	!	!	!	!LO:SIC:s=(16c/JJ:v	!	!	!	!	!	!	!	!	!	!	!	!	!	!	!
.	.	.	(16A-/JJ	.	16c/JJ	.	.	.	.	.	.	.	.	.	.	.	.	.	.	.
!	!	!	!	!	!	!	!	!	!	!	!	!LO:MO:mod=su-	!	!	!	!	!	!	!	!
!	!	!	!	!	!LO:SIC:s=8d/L):v	!	!	!	!	!	!	!	!	!	!	!	!	!	!	!
4G\	.	.	8B/L)	.	8d/L	.	.	.	.	.	4d\	suſ-	4b\	su-	.	.	.	.	.	.
!	!	!	!	!	!LO:SIC:s=8d/|:v	!	!	!	!	!	!	!	!	!	!	!	!	!	!	!
.	.	.	8B/|	.	8d/	.	.	.	.	.	.	.	.	.	.	.	.	.	.	.
!	!	!	!	!	!	!	!	!	!	!	!	!LO:MO:mod=-sci-	!	!	!	!	!	!	!	!
!	!	!	!	!	!LO:SIC:s=8d/|:v	!	!	!	!	!	!	!	!	!	!	!	!	!	!	!
4Fn\	.	.	8B/|	.	8d/	.	4Fn\	-rum	4G/	-rum	8d\	-ci-	8b\	-sci-	.	.	.	.	.	.
!	!	!	!	!	!LO:SIC:s=8d/J|:v	!	!	!	!	!	!	!	!	!	!	!	!	!	!	!
.	.	.	8B/J|	.	8d/J	.	.	.	.	.	8d\	-pe	8b\	-pe	.	.	.	.	.	.
!	!	!	!	!	!	!	!	!	!LO:LB:g=original	!	!	!	!	!	!	!LO:LB:g=original	!	!	!	!
=65	=65	=65	=65	=65	=65	=65	=65	=65	=65	=65	=65	=65	=65	=65	=65	=65	=65	=65	=65	=65
4E-\	6	.	8c/L	.	8e-/L	.	4E-\	ho-	4G/	ho-	4e-\	pro	4cc\	pro	2.G/	2.g\	4cc\	.	4ee-\	.
.	.	.	8G/	.	8g/	.	.	.	.	.	.	.	.	.	.	.	.	.	.	.
4D\	6\	.	8Bn/	.	8f/	.	4D\	-di-	4G/	-di-	4f\	a-	4bn\	a-	.	.	4bX\	.	4ff\	.
.	.	.	8G/	.	8g/	.	.	.	.	.	.	.	.	.	.	.	.	.	.	.
4C/	.	.	8c/	.	8e-/	.	4C/	-e	4G/	-e	4e-\	-ni-	4cc\	-ni-	.	.	8cc\L	.	4gg\	.
.	.	.	8e-/J	.	8g/J	.	.	.	.	.	.	.	.	.	.	.	8ee-\J	.	.	.
!LO:LB:g=original	!	!	!	!	!	!	!	!	!	!	!	!	!	!	!	!	!	!	!	!
=66	=66	=66	=66	=66	=66	=66	=66	=66	=66	=66	=66	=66	=66	=66	=66	=66	=66	=66	=66	=66
!	!	!	!	!	!	!	!LO:SIC:s=(4F\:v	!	!LO:SIC:s=(4A-/:v	!	!LO:SIC:s=(4f\:v	!	!	!	!	!	!	!	!	!
4F\	6	.	8d/L	.	8f/L	.	4F\	me-	4A-/	me-	4f\	-ma-	(4dd\	-ma-	4f\	4a-\	4dd\	.	4ff\	.
.	.	.	16c/L	.	16e-/L	.	.	.	.	.	.	.	.	.	.	.	.	.	.	.
.	.	.	16d/JJ	.	16f/JJ	.	.	.	.	.	.	.	.	.	.	.	.	.	.	.
!	!	!	!	!	!	!	!LO:SIC:s=4G\):v	!	!LO:SIC:s=4G/):v	!	!LO:SIC:s=4e-\):v	!	!	!	!	!	!	!	!	!
4G\	4	.	8e-/L	.	8g/L	.	4G\	-mo-	4G/	-mo-	4e-\	.	4cc\)	.	4g\	4g\	4cc\	.	4ee-\	.
.	.	.	8c/	.	8f/	.	.	.	.	.	.	.	.	.	.	.	.	.	.	.
4GG/	n	.	8d/	.	8f/	.	8G\	-ri-	8G/	-ri-	4d\	-bus	4bn\	-bus	4G/	4g\	4bX\	.	4dd\	.
.	.	.	8Bn/J	.	8d/J	.	8G\	-am	8G/	-am	.	.	.	.	.	.	.	.	.	.
=67	=67	=67	=67	=67	=67	=67	=67	=67	=67	=67	=67	=67	=67	=67	=67	=67	=67	=67	=67	=67
!LO:MO:mod=!null:null	!	!	!	!	!	!	!	!	!	!	!	!	!	!	!	!	!	!	!	!
!LO:TX:a:i:t=Solo	!	!	!	!	!	!	!	!	!	!	!	!	!	!	!	!	!	!	!	!
4C/	.	.	8c/L	.	8e-/L	.	8c\	fa-	8G/	fa-	4e-\	il-	4cc\	il-	4G/	4g\	4cc\	.	4ee-\	.
.	.	.	8e-/J	.	8g/J	.	8c\	-ci-	8G/	-ci-	.	.	.	.	.	.	.	.	.	.
!	!	!	!	!	!	!	!	!LO:MO:mod=-mus,	!	!LO:MO:mod=-mus,	!	!LO:MO:mod=-lis,	!	!LO:MO:mod=-lis,	!	!	!	!	!	!
4C/	.	.	4c/	.	4e-/	.	4C/	-mus	4G/	-mus	4e-\	-lis	4cc\	-lis	4G/	4g\	4cc\	.	4ee-\	.
!	!	!LO:DY:a:t=p&colon;	!	!	!	!	!	!	!	!	!	!	!	!	!	!	!	!	!	!
!	!	!LO:MO:mod=!null:null	!	!	!	!	!	!	!	!	!	!	!	!	!	!	!	!	!	!
4r	.	p	4r	.	4r	.	4r	.	4r	.	4r	.	4r	.	4r	4r	4r	.	4r	.
=68	=68	=68	=68	=68	=68	=68	=68	=68	=68	=68	=68	=68	=68	=68	=68	=68	=68	=68	=68	=68
!LO:MO:mod=!LO&colon;TX&colon;a&colon;i&colon;t=Solo	!	!	!	!	!	!	!	!	!	!	!	!	!	!	!	!	!	!	!	!
!null	!	!	!	!	!	!	!	!	!	!	!	!	!	!	!	!	!	!	!	!
!	!	!	!	!	!	!	!	!	!	!	!	!	!LO:MO:mod=!null:null	!	!	!	!	!	!LO:MO:mod=!LO&colon;TX&colon;a&colon;i&colon;t=Solo	!
!	!	!	!	!	!	!	!	!	!LO:MO:mod=!LO&colon;TX&colon;a&colon;i&colon;t=Solo	!	!LO:MO:mod=!LO&colon;TX&colon;a&colon;i&colon;t=Solo	!	!	!	!	!	!	!	!	!
!LO:TX:t=P:problem=mixed beam	!	!	!	!	!	!	!	!	!LO:TX:a:i:rj:t=Solo	!	!LO:TX:a:i:rj:t=Solo	!	!LO:TX:a:i:t=alt solo	!	!	!	!LO:TX:a:i:t=Solo	!	!LO:TX:a:i:rj:t=Solo	!
!	!	!LO:DY:t= :mod=%s	!	!	!	!	!	!	!	!	!	!	!	!	!	!	!	!	!	!
!	!	!LO:MO:mod=!LO&colon;DY&colon;ed=	!	!	!	!	!	!	!	!	!	!	!	!	!	!	!	!	!	!
!	!	!null	!	!	!	!	!	!	!	!	!	!	!	!	!	!	!	!	!	!
8c\L	n_	p	2.r	.	2.r	.	0.r	.	4en\	fac	4g\	fac	0.r	.	0.r	0.r	4eenX\	.	4gg\	.
8C/J	.	.	.	.	.	.	.	.	.	.	.	.	.	.	.	.	.	.	.	.
!	!	!	!	!	!	!	!	!	!	!	!LO:LB:g=original	!	!	!	!	!	!	!	!	!
8c\L	.	.	.	.	.	.	.	.	4.e\	e-	4.g\	e-	.	.	.	.	(4.ee\	.	(4.gg\	.
8d\	.	.	.	.	.	.	.	.	.	.	.	.	.	.	.	.	.	.	.	.
8c\	.	.	.	.	.	.	.	.	.	.	.	.	.	.	.	.	.	.	.	.
!	!	!	!	!	!	!	!	!	!	!LO:MO:mod=-as,	!	!LO:MO:mod=-as,	!	!	!	!	!	!	!	!
8B-X\J	X	.	.	.	.	.	.	.	16d\LL	-as	16f\LL	-as	.	.	.	.	16dd\LL	.	16ff\LL	.
.	.	.	.	.	.	.	.	.	16e\JJ	.	16g\JJ	.	.	.	.	.	16ee\JJ)	.	16gg\JJ)	.
!	!	!	!	!	!LO:LB:g=original	!	!	!	!	!	!	!	!	!	!	!	!	!	!	!
=69	=69	=69	=69	=69	=69	=69	=69	=69	=69	=69	=69	=69	=69	=69	=69	=69	=69	=69	=69	=69
!	!	!	!	!LO:DY:a:t=p.	!	!LO:DY:a:t=p.	!	!	!	!	!	!	!	!	!	!	!	!	!	!
!	!	!	!	!	!	!	!	!	!	!	!	!	!	!	!	!	!	!	!LO:SIC:s=(8aa-\L:v	!
8A-\L	6	.	(8f/L	p	(8.a-/L	p	.	.	8f\	Do-	8a-\	Do-	.	.	.	.	(8ff\L	.	8aa-\L	.
!	!	!	!	!	!	!	!	!	!	!	!	!	!	!	!	!	!LO:SIC:v:s=8een\J)	!	!	!
!	!	!	!	!	!	!	!	!	!	!	!	!	!	!	!	!	!	!	!LO:SIC:s=8gg\J):v	!
8G\J	6\	.	8g/J)	.	.	.	.	.	8en\	-mi-	8g\	-mi-	.	.	.	.	8ee-\J)	.	8gg\J	.
.	.	.	.	.	16b-/Jk)	.	.	.	.	.	.	.	.	.	.	.	.	.	.	.
!	!	!	!	!	!	!	!	!	!	!LO:MO:mod=-ne,	!	!LO:MO:mod=-ne,	!	!	!	!	!	!	!	!
!	!	!	!	!	!	!	!	!	!	!	!	!	!	!	!	!	!	!	!LO:SIC:s=4.aa-\|:v	!
!	!	!	!	!	!LO:SIC:s=8cc/|L:v	!	!	!	!	!	!	!	!	!	!	!	!	!	!	!
4F\	.	.	8a-/L|	.	8cc/L	.	.	.	4f\	-ne	4a-\	-ne	.	.	.	.	4ff\|	.	4.aa-\	.
.	.	.	8g/|	.	8b-/|	.	.	.	.	.	.	.	.	.	.	.	.	.	.	.
4r	.	.	8f/|	.	8a-/|	.	.	.	4r	.	4r	.	.	.	.	.	4r	.	.	.
.	.	.	8e-/J|	.	8g/J|	.	.	.	.	.	.	.	.	.	.	.	.	.	8r	.
=70	=70	=70	=70	=70	=70	=70	=70	=70	=70	=70	=70	=70	=70	=70	=70	=70	=70	=70	=70	=70
*	*	*	*	*	*	*	*	*	*	*ij	*	*	*	*	*	*	*	*	*	*
!LO:TX:t=P:problem=mixed beam	!	!	!	!	!	!	!	!	!	!	!	!	!	!	!	!	!	!	!	!
8B-\L	3_	.	(8e-/L	.	(8g/L	.	.	.	4d\	fac	4f\	fac	.	.	.	.	4dd\	.	4ff\	.
8BB-/J	.	.	8d/J)	.	8f/J)	.	.	.	.	.	.	.	.	.	.	.	.	.	.	.
!	!	!	!LO:SIC:s=4d/|:v	!	!	!	!	!	!	!	!	!	!	!	!	!	!	!	!	!
8B-\L	.	.	4d/	.	4f/|	.	.	.	4.d\	e-	4.f\	e-	.	.	.	.	(4.dd\	.	(4.ff\	.
8c\	.	.	.	.	.	.	.	.	.	.	.	.	.	.	.	.	.	.	.	.
8B-\	.	.	4r	.	4r	.	.	.	.	.	.	.	.	.	.	.	.	.	.	.
!	!	!	!	!	!	!	!	!	!	!LO:MO:mod=-as,	!	!LO:MO:mod=-as,	!	!	!	!	!	!	!	!
8A-\J	X	.	.	.	.	.	.	.	16c\LL	-as	16e-\LL	-as	.	.	.	.	16cc\LL	.	16ee-\LL	.
.	.	.	.	.	.	.	.	.	16d\JJ	.	16f\JJ	.	.	.	.	.	16dd\JJ)	.	16ff\JJ)	.
!	!	!	!	!	!	!	!	!	!	!	!	!	!	!	!	!	!	!	!LO:LB:g=original	!
=71	=71	=71	=71	=71	=71	=71	=71	=71	=71	=71	=71	=71	=71	=71	=71	=71	=71	=71	=71	=71
8G\L	6	.	(8e-/L	.	(8g/L	.	.	.	8e-X\	Do-	8g\	Do-	.	.	.	.	8ee-X\L	.	8gg\L	.
8F\J	6	.	8f/J)	.	8a-/J)	.	.	.	8d\	-mi-	8f\	-mi-	.	.	.	.	8dd\J	.	8ff\J	.
!	!	!	!LO:LB:g=original	!	!	!	!	!	!	!	!	!	!	!	!	!	!	!	!	!
!	!	!	!	!	!	!	!	!	!	!LO:MO:mod=-ne,	!	!LO:MO:mod=-ne,	!	!	!	!	!	!	!	!
4E-\	.	.	8g/L|	.	8b-/L|	.	.	.	4e-\	-ne	4g\	-ne	.	.	.	.	4ee-\	.	4gg\	.
*	*	*	*	*	*	*	*	*	*	*Xij	*	*	*	*	*	*	*	*	*	*
.	.	.	8f/|	.	8a-/|	.	.	.	.	.	.	.	.	.	.	.	.	.	.	.
4r	.	.	8e-/|	.	8g/|	.	.	.	4r	.	4r	.	.	.	.	.	4r	.	4r	.
.	.	.	8d/J|	.	8f/J|	.	.	.	.	.	.	.	.	.	.	.	.	.	.	.
!	!	!	!	!	!	!	!	!	!LO:LB:g=original	!	!	!	!	!	!	!	!	!	!	!
=72	=72	=72	=72	=72	=72	=72	=72	=72	=72	=72	=72	=72	=72	=72	=72	=72	=72	=72	=72	=72
8BB-/L	6 4	.	4e-/	.	4g/	.	0.r	.	4e-\	e-	4g\	e-	0.r	.	0.r	0.r	4ee-\	.	4gg\	.
8BB-/	.	.	.	.	.	.	.	.	.	.	.	.	.	.	.	.	.	.	.	.
8BB-/	.	.	8d/L	.	8f/L	.	.	.	8d\L	-as	8f\L	-as	.	.	.	.	8dd\L	.	8ff\L	.
8BB-/	.	.	8e-/J	.	8g/J	.	.	.	8e-\J	.	8g\J	.	.	.	.	.	8ee-\J	.	8gg\J	.
8BB-/	7_ 5_	.	4f/	.	4a-/	.	.	.	4f\	de	4a-\	de	.	.	.	.	4ff\	.	4aa-\	.
8BB-/J	.	.	.	.	.	.	.	.	.	.	.	.	.	.	.	.	.	.	.	.
=73	=73	=73	=73	=73	=73	=73	=73	=73	=73	=73	=73	=73	=73	=73	=73	=73	=73	=73	=73	=73
!LO:TX:t=P:problem=mixed beam	!	!	!	!	!	!	!	!	!	!	!	!	!	!	!	!	!	!	!	!
8E-\L	.	.	4f/	.	4a-/	.	.	.	4f\	mor-	4a-\	mor-	.	.	.	.	4ff\	.	4aa-\	.
8E-\	.	.	.	.	.	.	.	.	.	.	.	.	.	.	.	.	.	.	.	.
8EE-/	3	.	4e-/	.	4g/	.	.	.	4e-\	-te	4g\	-te	.	.	.	.	4ee-\	.	4gg\	.
8EE-/	.	.	.	.	.	.	.	.	.	.	.	.	.	.	.	.	.	.	.	.
8EE-/	.	.	4g/	.	4b-/	.	.	.	4g\	tran-	4b-\	tran-	.	.	.	.	4gg\	.	4bb-\	.
8EE-/J	.	.	.	.	.	.	.	.	.	.	.	.	.	.	.	.	.	.	.	.
=74	=74	=74	=74	=74	=74	=74	=74	=74	=74	=74	=74	=74	=74	=74	=74	=74	=74	=74	=74	=74
8E-\L	.	.	8g/L	.	8b-/L	.	.	.	4g\	-si-	4b-\	-si-	.	.	.	.	4gg\	.	4bb-\	.
8E-\J	.	.	16a-/L	.	16cc/L	.	.	.	.	.	.	.	.	.	.	.	.	.	.	.
.	.	.	16g/JJ	.	16b-/JJ	.	.	.	.	.	.	.	.	.	.	.	.	.	.	.
!LO:LB:g=original	!	!	!	!	!	!	!	!	!	!	!	!	!	!	!	!	!	!	!	!
8A-\L	6	.	4f/	.	4a-/	.	.	.	4f\	-re	4a-\	-re	.	.	.	.	4ff\	.	4aa-\	.
8A-\	.	.	.	.	.	.	.	.	.	.	.	.	.	.	.	.	.	.	.	.
8An\	5	.	4e-/	.	4g/	.	.	.	4e-\	ad	4g\	ad	.	.	.	.	4ee-\	.	4gg\	.
8A\J	.	.	.	.	.	.	.	.	.	.	.	.	.	.	.	.	.	.	.	.
!	!	!	!	!	!	!	!	!	!	!	!LO:PB:g=original	!	!	!	!	!	!LO:LB:g=original	!	!	!
=75	=75	=75	=75	=75	=75	=75	=75	=75	=75	=75	=75	=75	=75	=75	=75	=75	=75	=75	=75	=75
!LO:TX:t=P:problem=mixed beam	!	!	!	!	!	!	!	!	!	!	!	!	!	!	!	!	!	!	!	!
!	!	!	!	!	!	!	!	!	!	!LO:MO:mod=vi-	!	!LO:MO:mod=vi-	!	!	!	!	!	!	!	!
8B-\L	4	.	8e-/L	.	8g/L	.	.	.	4e-\	Vi-	4g\	Vi-	.	.	.	.	4ee-\	.	4gg\	.
8BB-/J	3	.	16d/L	.	16f/L	.	.	.	.	.	.	.	.	.	.	.	.	.	.	.
.	.	.	16e-/JJ	.	16g/JJ	.	.	.	.	.	.	.	.	.	.	.	.	.	.	.
!	!	!	!	!	!	!	!	!	!	!LO:MO:mod=-tam,	!	!LO:MO:mod=-tam,	!	!	!	!	!	!	!	!
8B-\L|	.	.	4d/	.	4f/	.	.	.	4d\	-tam	4f\	-tam	.	.	.	.	4dd\	.	4ff\	.
8A-X\|	.	.	.	.	.	.	.	.	.	.	.	.	.	.	.	.	.	.	.	.
8G\|	.	.	4r	.	4r	.	.	.	4r	.	4r	.	.	.	.	.	4r	.	4r	.
8F\J|	.	.	.	.	.	.	.	.	.	.	.	.	.	.	.	.	.	.	.	.
!	!	!	!	!	!LO:PB:g=original	!	!	!	!	!	!	!	!	!	!	!	!	!	!	!
=76	=76	=76	=76	=76	=76	=76	=76	=76	=76	=76	=76	=76	=76	=76	=76	=76	=76	=76	=76	=76
!LO:TX:a:i:t=Tutti	!	!	!	!LO:DY:a:t=for	!	!LO:DY:a:t=for	!	!	!	!	!	!	!	!	!	!	!	!LO:DY:a:t=for	!	!LO:DY:a:rj:t=f.
!	!	!	!	!	!	!	!	!LO:MO:mod=quam	!	!LO:MO:mod=quam	!	!LO:MO:mod=quam	!	!LO:MO:mod=quam	!	!	!	!	!	!
4E-\	.	.	8e-/L	f	8g/L	f	4E-\	Qua(m)	4B-\	qua(m)	4g\	qua(m)	4ee-\	qua(m)	4e-\	4g\	4ee-\	f	4gg\	f
.	.	.	16g/L	.	16b-/L	.	.	.	.	.	.	.	.	.	.	.	.	.	.	.
.	.	.	16f/JJ	.	16a-/JJ	.	.	.	.	.	.	.	.	.	.	.	.	.	.	.
4G\	.	.	8e-/L	.	8g/L	.	4E-\	o-	4B-\	o-	4g\	o-	4ee-\	o-	4e-\	4g\	4ee-\	.	4gg\	.
.	.	.	8e-/J	.	8g/J	.	.	.	.	.	.	.	.	.	.	.	.	.	.	.
4E-\	.	.	8e-/L	.	8g/L	.	4E-\	-lim	4B-\	-lim	4g\	-lim	4ee-\	-lim	4e-\	4g\	4ee-\	.	4gg\	.
.	.	.	16d/L	.	16f/L	.	.	.	.	.	.	.	.	.	.	.	.	.	.	.
.	.	.	16e-/JJ	.	16g/JJ	.	.	.	.	.	.	.	.	.	.	.	.	.	.	.
!	!	!	!	!	!	!	!LO:LB:g=original	!	!	!	!	!	!	!	!	!	!	!	!	!
=77	=77	=77	=77	=77	=77	=77	=77	=77	=77	=77	=77	=77	=77	=77	=77	=77	=77	=77	=77	=77
!	!	!	!	!	!	!	!	!LO:MO:mod=A-	!	!LO:MO:mod=A-	!	!LO:MO:mod=A-	!	!	!	!	!	!	!	!
4B-\	.	.	8f/L	.	8a-/L	.	8B-\	a-	8B-\	a-	8f\	a-	8dd\	A-	4B-/	4f\	4dd\	.	4ff\	.
.	.	.	8d/J	.	8f/J	.	8B-\	-bra-	8B-\	-bra-	8f\	-bra-	8dd\	-bra-	.	.	.	.	.	.
4BB-/	.	.	8r	.	8r	.	4BB-/	-hae	4B-\	-hae	4f\	-hae	4dd\	-hae	4B-/	4f\	4dd\	.	4ff\	.
.	.	.	8d/L	.	8f/L	.	.	.	.	.	.	.	.	.	.	.	.	.	.	.
4r	.	.	8e-/	.	8g/	.	4r	.	4r	.	4r	.	4r	.	4r	4r	4r	.	4r	.
.	.	.	8f/J	.	8a-/J	.	.	.	.	.	.	.	.	.	.	.	.	.	.	.
!	!	!	!	!	!	!	!	!	!	!	!	!	!LO:PB:g=original	!	!	!	!	!	!	!
=78	=78	=78	=78	=78	=78	=78	=78	=78	=78	=78	=78	=78	=78	=78	=78	=78	=78	=78	=78	=78
4E-\	.	.	8e-/L	.	8g/L	.	2E-\	pro-	2B-\	pro-	2g\	pro-	2ee-\	pro-	4e-\	4g\	4ee-\	.	4gg\	.
.	.	.	16g/L	.	16b-/L	.	.	.	.	.	.	.	.	.	.	.	.	.	.	.
.	.	.	16f/JJ	.	16a-/JJ	.	.	.	.	.	.	.	.	.	.	.	.	.	.	.
4G\	.	.	8e-/L	.	8g/L	.	.	.	.	.	.	.	.	.	4e-\	4g\	4ee-\	.	4gg\	.
.	.	.	8e-/J	.	8g/J	.	.	.	.	.	.	.	.	.	.	.	.	.	.	.
!	!	!	!LO:LB:g=original	!	!	!	!	!LO:MO:mod=-mi-	!	!	!	!	!	!LO:MO:mod=-mi-	!	!	!	!	!	!
4E-\	.	.	8e-/L	.	8g/L	.	4E-\	-miſ-	4B-\	-mi-	4g\	-mi-	4ee-\	-miſ-	4e-\	4g\	4ee-\	.	4gg\	.
.	.	.	16d/L	.	16f/L	.	.	.	.	.	.	.	.	.	.	.	.	.	.	.
.	.	.	16e-/JJ	.	16g/JJ	.	.	.	.	.	.	.	.	.	.	.	.	.	.	.
!	!	!	!	!	!	!	!	!	!	!	!	!	!	!	!	!	!	!	!LO:LB:g=original	!
=79	=79	=79	=79	=79	=79	=79	=79	=79	=79	=79	=79	=79	=79	=79	=79	=79	=79	=79	=79	=79
4B-\	.	.	8f/L	.	8a-/L	.	4B-\	-si-	4B-\	-si-	4f\	-si-	4dd\	-si-	4B-/	4f\	4dd\	.	4ff\	.
.	.	.	8d/J	.	8f/J	.	.	.	.	.	.	.	.	.	.	.	.	.	.	.
4BB-/	.	.	8r	.	8r	.	4BB-/	-sti	4B-\	-sti	4f\	-sti	4dd\	-sti	4B-/	4f\	4dd\	.	4ff\	.
.	.	.	8d/L	.	8f/L	.	.	.	.	.	.	.	.	.	.	.	.	.	.	.
4r	.	.	8e-/	.	8g/	.	4r	.	4r	.	4r	.	4r	.	4r	4r	4r	.	4r	.
.	.	.	8f/J	.	8a-/J	.	.	.	.	.	.	.	.	.	.	.	.	.	.	.
=80	=80	=80	=80	=80	=80	=80	=80	=80	=80	=80	=80	=80	=80	=80	=80	=80	=80	=80	=80	=80
4E-\	3_	.	8e-/L	.	8g/L	.	2.E-\	et	2.B-\	et	2.g\	et	2.ee-\	et	4e-\	4g\	2.ee-\	.	2.gg\	.
.	.	.	16g/L	.	16b-/L	.	.	.	.	.	.	.	.	.	.	.	.	.	.	.
.	.	.	16f/JJ	.	16a-/JJ	.	.	.	.	.	.	.	.	.	.	.	.	.	.	.
4e-\	.	.	8e-/L	.	8g/L	.	.	.	.	.	.	.	.	.	4e-\	4g\	.	.	.	.
.	.	.	8e-/	.	8g/	.	.	.	.	.	.	.	.	.	.	.	.	.	.	.
4e-\	.	.	8e-/	.	8g/	.	.	.	.	.	.	.	.	.	4r	4r	.	.	.	.
.	.	.	8e-/J	.	8g/J	.	.	.	.	.	.	.	.	.	.	.	.	.	.	.
!	!	!	!	!	!	!	!	!	!LO:LB:g=original	!	!	!	!	!	!LO:PB:g=original	!	!	!	!	!
=81	=81	=81	=81	=81	=81	=81	=81	=81	=81	=81	=81	=81	=81	=81	=81	=81	=81	=81	=81	=81
!	!	!	!	!	!	!	!	!LO:MO:mod=se-	!	!LO:MO:mod=se-	!	!LO:MO:mod=se-	!	!LO:MO:mod=se-	!	!	!	!	!	!
4c\	.	.	8e-/L	.	8g/L	.	4.c\	Se-	4.c\	Se-	4.g\	Se-	4.ee-\	Se-	4e-\	4g\	2.ee-\	.	2.gg\	.
.	.	.	16g/L	.	16e-/L	.	.	.	.	.	.	.	.	.	.	.	.	.	.	.
.	.	.	16f/JJ	.	16f/JJ	.	.	.	.	.	.	.	.	.	.	.	.	.	.	.
!	!	!	!	!	!LO:LB:g=original	!	!	!	!	!	!	!	!	!	!	!	!	!	!	!
4c\	X	.	8e-/L	.	8g/L	.	.	.	.	.	.	.	.	.	4e-\	4g\	.	.	.	.
.	.	.	8e-/	.	8g/	.	8c\	-mi-	8c\	-mi-	8g\	-mi-	8ee-\	-mi-	.	.	.	.	.	.
4c\	.	.	8e-/	.	8g/	.	4c\	-ni	4c\	-ni	4g\	-ni	4ee-\	-ni	4r	4r	.	.	.	.
.	.	.	8e-/J	.	8g/J	.	.	.	.	.	.	.	.	.	.	.	.	.	.	.
=82	=82	=82	=82	=82	=82	=82	=82	=82	=82	=82	=82	=82	=82	=82	=82	=82	=82	=82	=82	=82
4A-\	6	.	8f/L	.	8a-/L	.	4A-\	e-	4c\	e-	4a-\	e-	4ff\	e-	4f\	4a-\	4ff\	.	4aa-\	.
.	.	.	16a-/L	.	16cc/L	.	.	.	.	.	.	.	.	.	.	.	.	.	.	.
.	.	.	16f/JJ	.	16a-/JJ	.	.	.	.	.	.	.	.	.	.	.	.	.	.	.
4B-\	4	.	4e-/	.	4g/	.	4B-\	.	2B-\	.	4g\	.	4ee-\	.	4e-\	4g\	4ee-\	.	4gg\	.
4BB-/	3	.	4d/	.	4f/	.	4BB-/	.	.	.	4f\	.	4dd\	.	4B-/	4f\	4dd\	.	4ff\	.
!	!	!	!	!	!	!	!	!	!	!	!LO:LB:g=original	!	!	!	!	!LO:LB:g=original	!	!	!	!
=83	=83	=83	=83	=83	=83	=83	=83	=83	=83	=83	=83	=83	=83	=83	=83	=83	=83	=83	=83	=83
!	!	!	!	!	!	!	!	!	!	!	!	!	!	!	!	!	!	!	!LO:MO:mod=!LO&colon;TX&colon;a&colon;i&colon;t=Solo	!
!	!	!	!	!	!	!	!	!	!	!	!	!	!	!	!LO:MO:mod=!LO&colon;TX&colon;a&colon;i&colon;t=Solo	!	!	!	!	!
!	!	!LO:DY:a:t=p.	!	!	!	!	!	!	!	!	!	!	!	!	!LO:TX:a:i:rj:t=Solo	!LO:TX:a:i:t=Solo	!LO:TX:a:i:t=Solo	!	!LO:TX:a:i:rj:t=Solo	!
!	!	!	!	!	!	!	!	!LO:MO:mod=-ius.	!	!LO:MO:mod=-ius.	!	!LO:MO:mod=-ius.	!	!LO:MO:mod=-ius.	!	!	!	!	!	!
4E-\	.	p	8e-/L	.	8g/L	.	4E-\	-ius	4B-\	-ius	4g\	-ius	4ee-\	-ius	4e-\	4g\	8ee-\L	.	8gg\L	.
.	.	.	8g/J	.	8b-/J	.	.	.	.	.	.	.	.	.	.	.	8gg\J	.	8bb-\J	.
!	!	!	!	!	!	!LO:DY:a:t=p.	!	!	!	!	!	!	!	!	!	!	!	!	!	!
!	!	!	!	!	!	!LO:MO:mod=!null:null 	!	!	!	!	!	!	!	!	!	!	!	!	!	!
4E-\	.	.	8r	.	8r	p	4r	.	4r	.	4r	.	4r	.	(4.g\	(4.b-\	(4.gg\	.	(4.bb-\	.
!	!	!	!	!LO:DY:a:t=p.	!	!	!	!	!	!	!	!	!	!	!	!	!	!	!	!
!	!	!	!	!	!	!LO:DY:t= :mod=%s	!	!	!	!	!	!	!	!	!	!	!	!	!	!
!	!	!	!	!	!	!LO:MO:mod=!LO&colon;DY&colon;ed=	!	!	!	!	!	!	!	!	!	!	!	!	!	!
!	!	!	!	!	!	!null	!	!	!	!	!	!	!	!	!	!	!	!	!	!
.	.	.	(16g/LL	p	(16b-/LL	p	.	.	.	.	.	.	.	.	.	.	.	.	.	.
.	.	.	16a-/JJ)	.	16cc/JJ)	.	.	.	.	.	.	.	.	.	.	.	.	.	.	.
4BB-/	4	.	8g/L|	.	8b-/L|	.	4r	.	4r	.	4r	.	4r	.	.	.	.	.	.	.
.	3	.	8f/J|	.	8a-/J|	.	.	.	.	.	.	.	.	.	8f\)	8a-\)	8ff\)	.	8aa-\)	.
!LO:LB:g=original	!	!	!	!	!	!	!	!	!	!	!	!	!	!	!	!	!LO:LB:g=original	!	!	!
=84	=84	=84	=84	=84	=84	=84	=84	=84	=84	=84	=84	=84	=84	=84	=84	=84	=84	=84	=84	=84
4C/	.	.	(8f/L	.	(8a-/L	.	1.r	.	1.r	.	1.r	.	1.r	.	(8f\L	(8a-\L	(8ff\L	.	(8aa-\L	.
.	.	.	8e-/J)	.	8g/J)	.	.	.	.	.	.	.	.	.	8e-\J)	8g\J)	8ee-\J)	.	8gg\J)	.
!	!	!	!	!	!	!	!	!	!	!	!	!	!	!	!	!	!LO:SIC:s=(4.ee-\:v	!	!	!
4C/	.	.	8r	.	8r	.	.	.	.	.	.	.	.	.	(4.e-\	(4.g\	4.ee-\	.	(4.gg\	.
.	.	.	(16e-/LL	.	(16g/LL	.	.	.	.	.	.	.	.	.	.	.	.	.	.	.
.	.	.	16f/JJ)	.	16a-/JJ)	.	.	.	.	.	.	.	.	.	.	.	.	.	.	.
4GG/	4	.	8e-/L|	.	8g/L|	.	.	.	.	.	.	.	.	.	.	.	.	.	.	.
!	!	!	!	!	!	!	!	!	!	!	!	!	!	!	!	!	!LO:SIC:s=8dd\):v	!	!	!
.	3	.	8d/J|	.	8f/J|	.	.	.	.	.	.	.	.	.	8B-/)	8f\)	8dd\	.	8ff\)	.
!	!	!	!LO:LB:g=original	!	!	!	!	!	!	!	!	!	!	!	!	!	!	!	!	!
=85	=85	=85	=85	=85	=85	=85	=85	=85	=85	=85	=85	=85	=85	=85	=85	=85	=85	=85	=85	=85
2AA-/	5	.	(8c/L	.	(8e-/L	.	.	.	.	.	.	.	.	.	4e-\	4g\	8cc\L	.	8ee-\L	.
.	.	.	16B-/L	.	16d/L	.	.	.	.	.	.	.	.	.	.	.	16b-\L	.	16dd\L	.
.	.	.	16c/JJ)	.	16e-/JJ)	.	.	.	.	.	.	.	.	.	.	.	16cc\JJ	.	16ee-\JJ	.
.	6	.	8A-'/L	.	8f/L|	.	.	.	.	.	.	.	.	.	4f\	4a-\	4a-/	.	4ff\	.
.	.	.	8c'/	.	8a-/|	.	.	.	.	.	.	.	.	.	.	.	.	.	.	.
4BB-/	.	.	8B-'/	.	8d/|	.	.	.	.	.	.	.	.	.	4B-/	4f\	4f/	.	4dd\	.
.	.	.	8A-'/J	.	8f/J|	.	.	.	.	.	.	.	.	.	.	.	.	.	.	.
=86	=86	=86	=86	=86	=86	=86	=86	=86	=86	=86	=86	=86	=86	=86	=86	=86	=86	=86	=86	=86
!	!	!	!	!	!	!LO:DY:a:t=pp&colon;	!	!	!	!	!	!	!	!	!	!	!	!	!	!
!	!	!	!	!LO:DY:t= :mod=%s	!	!	!	!	!	!	!	!	!	!	!	!	!	!	!	!
!	!	!	!	!LO:MO:mod=!LO&colon;DY&colon;ed=	!	!	!	!	!	!	!	!	!	!	!	!	!	!	!	!
!	!	!	!	!null	!	!	!	!	!	!	!	!	!	!	!	!	!	!	!	!
4E-\	.	.	(8A-/L	pp	(8f/L	pp	2.r	.	2.r	.	2.r	.	2.r	.	4G/	4e-\	4g/	.	4ee-\	.
!	!	!	!	!LO:DY:t=pp&colon;	!	!	!	!	!	!	!	!	!	!	!	!	!	!	!	!
!	!	!	!	!LO:MO:mod=!null:null 	!	!	!	!	!	!	!	!	!	!	!	!	!	!	!	!
.	.	.	8G/J)	pp	8e-/J)	.	.	.	.	.	.	.	.	.	.	.	.	.	.	.
!	!	!	!LO:SIC:s=4G/|:v	!	!	!	!	!	!	!	!	!	!	!	!	!	!	!	!	!
4EE-/	.	.	4G/	.	4e-/|	.	.	.	.	.	.	.	.	.	4G/	4e-\	4g/	.	4ee-\	.
4r	.	.	4r	.	4r	.	.	.	.	.	.	.	.	.	4r	4r	4r	.	4r	.
==	==	==	==	==	==	==	==	==	==	==	==	==	==	==	==	==	==	==	==	==
*-	*-	*-	*-	*-	*-	*-	*-	*-	*-	*-	*-	*-	*-	*-	*-	*-	*-	*-	*-	*-
!!!system-decoration: [(s1,s2)][(s3,s4)][(s5,s6,s7,s8)][(s9,s10)]s11
!!!RDF**kern: | = vertical stroke
!!!filter-modern: tie -s | humtr -p | sic -sq | shed -e "s/LO:DY:(a|b|rj)/LO:dy:$1/L" | shed -e "s/TX(.*):t=P:/tx$1:t=P:/LG" | modori -m | autostem -r | shed -e "s/yy//" | shed -k -e "s/\(y([^y])/($1/" | shed -e "s/-//B" | shed -e "s/^(\d+[\/\\]right)/$1yy/I; s/^(\d+[\/\\]left)/$1yy/I" | shed -e "s/^(X?)rep$/$1REP/I" | shed -k -e "s/[<>]//g" | shed -e "s/^custos:/Xcustos:/I" | shed -k -e "s/:TUP:/:tup:/L" | shed -k -e "s/r[a-gA-G]+/r/D" | rid -lid
!!!ENC: Andrzej Gręziak
!!!END: 2021-12-02
!!!EED: Marta Lawrence
!!!EEV: 2021-12-15
!!!EED-modern: Antoni Szymański
!!!END-modern: 2022-07-27
